;FLAVOR:Marlin
;TIME:668
;Filament used: 0.116768m
;Layer height: 0.12
;MINX:103.022
;MINY:103.022
;MINZ:0.12
;MAXX:131.982
;MAXY:131.975
;MAXZ:15.6
;Generated with Cura_SteamEngine 4.11.0
M140 S50
M105
M190 S50
M104 S200
M105
M109 S200
M82 ;absolute extrusion mode
; Ender 3 Custom Start G-code
G92 E0 ; Reset Extruder
G28 ; Home all axes
G1 Z2.0 F3000 ; Move Z Axis up little to prevent scratching of Heat Bed
G1 X0.1 Y20 Z0.3 F5000.0 ; Move to start position
G1 X0.1 Y200.0 Z0.3 F1500.0 E15 ; Draw the first line
G1 X0.4 Y200.0 Z0.3 F5000.0 ; Move to side a little
G1 X0.4 Y20 Z0.3 F1500.0 E30 ; Draw the second line
G92 E0 ; Reset Extruder
G1 Z2.0 F3000 ; Move Z Axis up little to prevent scratching of Heat Bed
G1 X5 Y20 Z0.3 F5000.0 ; Move over to prevent blob squish
G92 E0
G92 E0
G1 F2700 E-5
;LAYER_COUNT:133
;LAYER:0
M107
G0 F6000 X107.52 Y107.008 Z0.12
;TYPE:SKIRT
G1 F2700 E0
G1 F1200 X108.218 Y106.4 E0.01847
G1 X108.622 Y106.077 E0.0288
G1 X108.856 Y105.895 E0.03471
G1 X109.016 Y105.774 E0.03871
G1 X109.787 Y105.241 E0.05742
G1 X110.67 Y104.74 E0.07768
G1 X111.05 Y104.547 E0.08618
G1 X111.315 Y104.417 E0.09207
G1 X111.57 Y104.296 E0.09771
G1 X112.434 Y103.93 E0.11643
G1 X113.363 Y103.629 E0.13592
G1 X113.831 Y103.5 E0.14561
G1 X114.17 Y103.413 E0.15259
G1 X114.381 Y103.362 E0.15692
G1 X115.301 Y103.181 E0.17564
G1 X116.213 Y103.08 E0.19395
G1 X116.636 Y103.051 E0.20241
G1 X117.02 Y103.031 E0.21008
G1 X117.289 Y103.022 E0.21545
G1 X118.227 Y103.031 E0.23417
G1 X119.147 Y103.117 E0.25261
G1 X119.681 Y103.19 E0.26337
G1 X120.019 Y103.242 E0.27019
G1 X120.197 Y103.272 E0.2738
G1 X121.114 Y103.467 E0.2925
G1 X122.054 Y103.755 E0.31212
G1 X122.459 Y103.899 E0.3207
G1 X122.744 Y104.004 E0.32676
G1 X123.005 Y104.105 E0.33235
G1 X123.864 Y104.481 E0.35106
G1 X124.725 Y104.95 E0.37063
G1 X125.132 Y105.196 E0.38012
G1 X125.408 Y105.368 E0.38661
G1 X125.597 Y105.49 E0.3911
G1 X126.362 Y106.032 E0.40981
G1 X127.066 Y106.625 E0.42817
G1 X127.392 Y106.924 E0.437
G1 X127.67 Y107.188 E0.44465
G1 X127.851 Y107.366 E0.44972
G1 X128.491 Y108.052 E0.46844
G1 X129.054 Y108.767 E0.4866
G1 X129.343 Y109.167 E0.49645
G1 X129.549 Y109.462 E0.50363
G1 X129.675 Y109.649 E0.50813
G1 X130.166 Y110.449 E0.52686
G1 X130.603 Y111.324 E0.54638
G1 X130.785 Y111.733 E0.55531
G1 X130.912 Y112.03 E0.56176
G1 X131.008 Y112.264 E0.56681
G1 X131.327 Y113.146 E0.58552
G1 X131.568 Y114.05 E0.6042
G1 X131.665 Y114.486 E0.61311
G1 X131.741 Y114.855 E0.62063
G1 X131.789 Y115.112 E0.62584
G1 X131.922 Y116.041 E0.64457
G1 X131.974 Y116.939 E0.66252
G1 X131.982 Y117.396 E0.67164
G1 X131.982 Y117.772 E0.67915
G1 X131.978 Y118.012 E0.68394
G1 X131.923 Y118.949 E0.70267
G1 X131.791 Y119.86 E0.72104
G1 X131.701 Y120.339 E0.73077
G1 X131.619 Y120.734 E0.73882
G1 X131.567 Y120.964 E0.74352
G1 X131.322 Y121.869 E0.76223
G1 X131.027 Y122.684 E0.77953
G1 X130.874 Y123.06 E0.78763
G1 X130.726 Y123.407 E0.79516
G1 X130.611 Y123.664 E0.80078
G1 X130.191 Y124.503 E0.8195
G1 X129.703 Y125.302 E0.83818
G1 X129.411 Y125.737 E0.84864
G1 X129.192 Y126.051 E0.85628
G1 X129.085 Y126.199 E0.85992
G1 X128.504 Y126.935 E0.87864
G1 X127.862 Y127.618 E0.89734
G1 X127.498 Y127.974 E0.9075
G1 X127.275 Y128.186 E0.91364
G1 X127.129 Y128.321 E0.91761
G1 X126.414 Y128.928 E0.93633
G1 X125.614 Y129.495 E0.9559
G1 X125.21 Y129.755 E0.96548
G1 X124.916 Y129.937 E0.97238
G1 X124.716 Y130.057 E0.97704
G1 X123.892 Y130.505 E0.99576
G1 X123.033 Y130.881 E1.01447
G1 X122.628 Y131.038 E1.02314
G1 X122.282 Y131.166 E1.0305
G1 X122.016 Y131.259 E1.03612
G1 X121.119 Y131.53 E1.05482
G1 X120.27 Y131.713 E1.07215
G1 X119.896 Y131.778 E1.07973
G1 X119.501 Y131.839 E1.08771
G1 X119.201 Y131.88 E1.09375
G1 X118.268 Y131.967 E1.11245
G1 X117.334 Y131.975 E1.13109
G1 X116.81 Y131.957 E1.14155
G1 X116.307 Y131.929 E1.1516
G1 X115.375 Y131.831 E1.17031
G1 X114.38 Y131.635 E1.19054
G1 X113.935 Y131.526 E1.19969
G1 X113.608 Y131.441 E1.20643
G1 X113.374 Y131.376 E1.21128
G1 X112.482 Y131.086 E1.22999
G1 X111.624 Y130.725 E1.24857
G1 X111.198 Y130.524 E1.25797
G1 X110.87 Y130.363 E1.26526
G1 X110.642 Y130.246 E1.27038
G1 X109.826 Y129.782 E1.28911
G1 X109.082 Y129.273 E1.3071
G1 X108.774 Y129.043 E1.31477
G1 X108.525 Y128.851 E1.32104
G1 X108.294 Y128.668 E1.32693
G1 X107.585 Y128.055 E1.34563
G1 X106.874 Y127.321 E1.36602
G1 X106.516 Y126.915 E1.37682
G1 X106.215 Y126.56 E1.38611
G1 X105.645 Y125.816 E1.40482
G1 X105.116 Y124.984 E1.42449
G1 X104.888 Y124.587 E1.43363
G1 X104.702 Y124.25 E1.44131
G1 X104.582 Y124.023 E1.44643
G1 X104.18 Y123.176 E1.46514
G1 X103.869 Y122.352 E1.48272
G1 X103.742 Y121.97 E1.49075
G1 X103.648 Y121.675 E1.49693
G1 X103.566 Y121.403 E1.5026
G1 X103.334 Y120.494 E1.52132
G1 X103.174 Y119.516 E1.5411
G1 X103.116 Y119.024 E1.55099
G1 X103.081 Y118.689 E1.55771
G1 X103.063 Y118.482 E1.56185
G1 X103.022 Y117.545 E1.58057
G1 X103.062 Y116.592 E1.59961
G1 X103.108 Y116.054 E1.61038
G1 X103.147 Y115.678 E1.61792
G1 X103.169 Y115.495 E1.6216
G1 X103.32 Y114.57 E1.64031
G1 X103.553 Y113.652 E1.65921
G1 X103.68 Y113.228 E1.66804
G1 X103.769 Y112.944 E1.67398
G1 X103.85 Y112.698 E1.67915
G1 X104.181 Y111.82 E1.69787
G1 X104.602 Y110.942 E1.7173
G1 X104.811 Y110.552 E1.72613
G1 X104.971 Y110.264 E1.73271
G1 X105.105 Y110.031 E1.73807
G1 X105.607 Y109.239 E1.75679
G1 X106.178 Y108.488 E1.77561
G1 X106.447 Y108.164 E1.78402
G1 X106.691 Y107.88 E1.79149
G1 X106.868 Y107.681 E1.7968
G1 X107.52 Y107.008 E1.8155
G0 F6000 X107.808 Y107.287
G1 F1200 X108.468 Y106.713 E1.83296
G1 X108.872 Y106.39 E1.84328
G1 X109.097 Y106.214 E1.84898
G1 X109.257 Y106.093 E1.85298
G1 X110.015 Y105.571 E1.87135
G1 X110.851 Y105.097 E1.89053
G1 X111.231 Y104.904 E1.89903
G1 X111.487 Y104.778 E1.90473
G1 X111.742 Y104.657 E1.91036
G1 X112.59 Y104.299 E1.92873
G1 X113.469 Y104.015 E1.94716
G1 X113.937 Y103.886 E1.95685
G1 X114.264 Y103.802 E1.96359
G1 X114.475 Y103.751 E1.96792
G1 X115.378 Y103.573 E1.98629
G1 X116.24 Y103.479 E2.00359
G1 X116.663 Y103.45 E2.01205
G1 X117.034 Y103.431 E2.01947
G1 X117.303 Y103.422 E2.02484
G1 X118.223 Y103.431 E2.0432
G1 X119.093 Y103.514 E2.06064
G1 X119.627 Y103.587 E2.0714
G1 X119.953 Y103.636 E2.07797
G1 X120.131 Y103.666 E2.08158
G1 X121.031 Y103.859 E2.09995
G1 X121.92 Y104.132 E2.1185
G1 X122.325 Y104.276 E2.12708
G1 X122.599 Y104.377 E2.13291
G1 X122.86 Y104.478 E2.13849
G1 X123.704 Y104.848 E2.15688
G1 X124.518 Y105.292 E2.17539
G1 X124.925 Y105.538 E2.18488
G1 X125.191 Y105.704 E2.19114
G1 X125.38 Y105.826 E2.19563
G1 X126.131 Y106.359 E2.214
G1 X126.796 Y106.92 E2.23137
G1 X127.122 Y107.219 E2.24019
G1 X127.389 Y107.473 E2.24755
G1 X127.57 Y107.651 E2.25261
G1 X128.198 Y108.325 E2.271
G1 X128.73 Y109.001 E2.28816
G1 X129.019 Y109.401 E2.29801
G1 X129.218 Y109.686 E2.30495
G1 X129.344 Y109.873 E2.30945
G1 X129.825 Y110.658 E2.32782
G1 X130.237 Y111.487 E2.3463
G1 X130.419 Y111.896 E2.35523
G1 X130.542 Y112.182 E2.36144
G1 X130.638 Y112.416 E2.36649
G1 X130.95 Y113.282 E2.38486
G1 X131.178 Y114.137 E2.40252
G1 X131.275 Y114.573 E2.41143
G1 X131.348 Y114.929 E2.41868
G1 X131.396 Y115.186 E2.4239
G1 X131.525 Y116.097 E2.44226
G1 X131.574 Y116.946 E2.45923
G1 X131.582 Y117.403 E2.46835
G1 X131.583 Y117.766 E2.4756
G1 X131.579 Y118.006 E2.48039
G1 X131.523 Y118.925 E2.49876
G1 X131.398 Y119.786 E2.51612
G1 X131.308 Y120.265 E2.52585
G1 X131.229 Y120.646 E2.53362
G1 X131.177 Y120.876 E2.53832
G1 X130.935 Y121.764 E2.55669
G1 X130.656 Y122.533 E2.57301
G1 X130.503 Y122.909 E2.58111
G1 X130.361 Y123.244 E2.58838
G1 X130.246 Y123.501 E2.59399
G1 X129.833 Y124.324 E2.61237
G1 X129.371 Y125.079 E2.63003
G1 X129.079 Y125.514 E2.64049
G1 X128.868 Y125.816 E2.64784
G1 X128.761 Y125.964 E2.65149
G1 X128.19 Y126.686 E2.66986
G1 X127.583 Y127.332 E2.68755
G1 X127.219 Y127.688 E2.69771
G1 X127.003 Y127.893 E2.70365
G1 X126.857 Y128.028 E2.70762
G1 X126.155 Y128.623 E2.72598
G1 X125.397 Y129.159 E2.74451
G1 X124.993 Y129.419 E2.7541
G1 X124.711 Y129.594 E2.76072
G1 X124.511 Y129.714 E2.76537
G1 X123.701 Y130.153 E2.78376
G1 X122.888 Y130.508 E2.80146
G1 X122.483 Y130.665 E2.81013
G1 X122.15 Y130.788 E2.81721
G1 X121.884 Y130.881 E2.82284
G1 X121.003 Y131.147 E2.8412
G1 X120.201 Y131.318 E2.85757
G1 X119.827 Y131.383 E2.86514
G1 X119.447 Y131.442 E2.87282
G1 X119.147 Y131.483 E2.87886
G1 X118.231 Y131.568 E2.89722
G1 X117.348 Y131.575 E2.91484
G1 X116.824 Y131.557 E2.9253
G1 X116.523 Y131.542 E2.93132
G1 X116.332 Y131.53 E2.93514
G1 X115.417 Y131.433 E2.9535
G1 X114.475 Y131.247 E2.97266
G1 X114.03 Y131.138 E2.9818
G1 X113.715 Y131.055 E2.9883
G1 X113.481 Y130.99 E2.99315
G1 X112.605 Y130.706 E3.01153
G1 X111.795 Y130.363 E3.02908
G1 X111.369 Y130.162 E3.03848
G1 X111.053 Y130.007 E3.04551
G1 X110.825 Y129.89 E3.05062
G1 X110.024 Y129.434 E3.06901
G1 X109.322 Y128.952 E3.08601
G1 X109.014 Y128.722 E3.09368
G1 X108.774 Y128.538 E3.09971
G1 X108.543 Y128.355 E3.10559
G1 X107.847 Y127.752 E3.12397
G1 X107.174 Y127.057 E3.14328
G1 X106.816 Y126.651 E3.15408
G1 X106.522 Y126.304 E3.16316
G1 X105.963 Y125.573 E3.18152
G1 X105.463 Y124.785 E3.20014
G1 X105.235 Y124.388 E3.20928
G1 X105.056 Y124.063 E3.21668
G1 X104.936 Y123.836 E3.22181
G1 X104.541 Y123.004 E3.24019
G1 X104.248 Y122.226 E3.25678
G1 X104.121 Y121.844 E3.26481
G1 X104.031 Y121.56 E3.27076
G1 X103.949 Y121.288 E3.27643
G1 X103.722 Y120.395 E3.29481
G1 X103.571 Y119.469 E3.31354
G1 X103.513 Y118.977 E3.32342
G1 X103.48 Y118.654 E3.3299
G1 X103.462 Y118.447 E3.33405
G1 X103.422 Y117.527 E3.35243
G1 X103.461 Y116.626 E3.37042
G1 X103.507 Y116.088 E3.3812
G1 X103.544 Y115.726 E3.38846
G1 X103.566 Y115.543 E3.39214
G1 X103.715 Y114.634 E3.41052
G1 X103.936 Y113.767 E3.42838
G1 X104.063 Y113.343 E3.43721
G1 X104.149 Y113.069 E3.44294
G1 X104.23 Y112.823 E3.44811
G1 X104.555 Y111.962 E3.46648
G1 X104.955 Y111.131 E3.48488
G1 X105.164 Y110.741 E3.49371
G1 X105.318 Y110.463 E3.50005
G1 X105.452 Y110.23 E3.50542
G1 X105.945 Y109.453 E3.52378
G1 X106.485 Y108.744 E3.54156
G1 X106.754 Y108.42 E3.54997
G1 X106.99 Y108.146 E3.55719
G1 X107.167 Y107.947 E3.5625
G1 X107.808 Y107.287 E3.58086
G0 F6000 X108.095 Y107.566
G1 F1200 X108.718 Y107.025 E3.59733
G1 X109.122 Y106.702 E3.60765
G1 X109.339 Y106.533 E3.61314
G1 X109.499 Y106.412 E3.61714
G1 X110.242 Y105.9 E3.63515
G1 X111.032 Y105.454 E3.65325
G1 X111.412 Y105.261 E3.66176
G1 X111.658 Y105.14 E3.66723
G1 X111.913 Y105.019 E3.67286
G1 X112.746 Y104.668 E3.6909
G1 X113.576 Y104.401 E3.7083
G1 X114.044 Y104.272 E3.71799
G1 X114.358 Y104.191 E3.72446
G1 X114.569 Y104.14 E3.72879
G1 X115.455 Y103.966 E3.74681
G1 X116.267 Y103.878 E3.76311
G1 X116.69 Y103.849 E3.77157
G1 X117.047 Y103.831 E3.7787
G1 X117.316 Y103.822 E3.78407
G1 X118.219 Y103.831 E3.8021
G1 X119.039 Y103.91 E3.81854
G1 X119.573 Y103.983 E3.82929
G1 X119.886 Y104.031 E3.83561
G1 X120.064 Y104.061 E3.83921
G1 X120.947 Y104.25 E3.85723
G1 X121.786 Y104.508 E3.87475
G1 X122.191 Y104.652 E3.88333
G1 X122.455 Y104.75 E3.88895
G1 X122.716 Y104.851 E3.89453
G1 X123.543 Y105.214 E3.91256
G1 X124.311 Y105.635 E3.93003
G1 X124.718 Y105.881 E3.93952
G1 X124.974 Y106.04 E3.94554
G1 X125.163 Y106.162 E3.95003
G1 X125.899 Y106.685 E3.96805
G1 X126.525 Y107.215 E3.98441
G1 X126.851 Y107.514 E3.99324
G1 X127.109 Y107.758 E4.00033
G1 X127.29 Y107.936 E4.00539
G1 X127.905 Y108.598 E4.02343
G1 X128.406 Y109.235 E4.0396
G1 X128.695 Y109.635 E4.04945
G1 X128.886 Y109.909 E4.05611
G1 X129.012 Y110.096 E4.06061
G1 X129.483 Y110.867 E4.07864
G1 X129.872 Y111.649 E4.09607
G1 X130.054 Y112.058 E4.10501
G1 X130.172 Y112.334 E4.111
G1 X130.268 Y112.568 E4.11604
G1 X130.573 Y113.417 E4.13405
G1 X130.788 Y114.224 E4.15071
G1 X130.885 Y114.66 E4.15963
G1 X130.955 Y115.002 E4.16659
G1 X131.003 Y115.259 E4.17181
G1 X131.129 Y116.154 E4.18985
G1 X131.174 Y116.953 E4.20582
G1 X131.182 Y117.41 E4.21494
G1 X131.183 Y117.759 E4.2219
G1 X131.179 Y117.999 E4.22669
G1 X131.124 Y118.9 E4.24471
G1 X131.005 Y119.713 E4.2611
G1 X130.915 Y120.192 E4.27083
G1 X130.839 Y120.557 E4.27827
G1 X130.787 Y120.787 E4.28298
G1 X130.549 Y121.659 E4.30101
G1 X130.286 Y122.382 E4.31637
G1 X130.133 Y122.758 E4.32447
G1 X129.995 Y123.08 E4.33146
G1 X129.88 Y123.337 E4.33708
G1 X129.475 Y124.144 E4.3551
G1 X129.039 Y124.856 E4.37176
G1 X128.747 Y125.291 E4.38221
G1 X128.544 Y125.582 E4.38929
G1 X128.437 Y125.73 E4.39294
G1 X127.876 Y126.438 E4.41097
G1 X127.303 Y127.046 E4.42764
G1 X126.939 Y127.402 E4.4378
G1 X126.732 Y127.599 E4.4435
G1 X126.586 Y127.734 E4.44747
G1 X125.896 Y128.317 E4.4655
G1 X125.181 Y128.822 E4.48296
G1 X124.777 Y129.082 E4.49255
G1 X124.505 Y129.251 E4.49894
G1 X124.305 Y129.371 E4.5036
G1 X123.511 Y129.801 E4.52162
G1 X122.744 Y130.135 E4.53831
G1 X122.339 Y130.292 E4.54698
G1 X122.018 Y130.41 E4.5538
G1 X121.752 Y130.503 E4.55943
G1 X120.887 Y130.764 E4.57746
G1 X120.133 Y130.924 E4.59284
G1 X119.759 Y130.989 E4.60042
G1 X119.393 Y131.046 E4.60781
G1 X119.093 Y131.087 E4.61385
G1 X118.194 Y131.17 E4.63187
G1 X117.362 Y131.175 E4.64847
G1 X116.838 Y131.157 E4.65893
G1 X116.548 Y131.143 E4.66473
G1 X116.357 Y131.131 E4.66855
G1 X115.459 Y131.034 E4.68657
G1 X114.57 Y130.858 E4.70466
G1 X114.125 Y130.749 E4.7138
G1 X113.822 Y130.67 E4.72005
G1 X113.588 Y130.605 E4.7249
G1 X112.729 Y130.325 E4.74293
G1 X111.965 Y130.002 E4.75948
G1 X111.539 Y129.801 E4.76888
G1 X111.235 Y129.651 E4.77564
G1 X111.007 Y129.534 E4.78076
G1 X110.223 Y129.086 E4.79878
G1 X109.561 Y128.632 E4.8148
G1 X109.253 Y128.402 E4.82247
G1 X109.022 Y128.224 E4.82829
G1 X108.791 Y128.041 E4.83417
G1 X108.109 Y127.45 E4.85218
G1 X107.474 Y126.792 E4.87043
G1 X107.116 Y126.386 E4.88123
G1 X106.829 Y126.047 E4.89009
G1 X106.281 Y125.329 E4.90812
G1 X105.81 Y124.586 E4.92567
G1 X105.582 Y124.189 E4.93481
G1 X105.409 Y123.876 E4.94195
G1 X105.289 Y123.649 E4.94707
G1 X104.903 Y122.833 E4.96508
G1 X104.628 Y122.1 E4.98071
G1 X104.501 Y121.718 E4.98874
G1 X104.414 Y121.444 E4.99448
G1 X104.332 Y121.172 E5.00015
G1 X104.11 Y120.297 E5.01816
G1 X103.968 Y119.422 E5.03585
G1 X103.91 Y118.93 E5.04574
G1 X103.878 Y118.62 E5.05196
G1 X103.86 Y118.413 E5.0561
G1 X103.822 Y117.51 E5.07414
G1 X103.859 Y116.66 E5.09112
G1 X103.905 Y116.122 E5.1019
G1 X103.941 Y115.774 E5.10888
G1 X103.963 Y115.591 E5.11256
G1 X104.11 Y114.7 E5.13058
G1 X104.319 Y113.881 E5.14744
G1 X104.446 Y113.457 E5.15628
G1 X104.529 Y113.194 E5.16178
G1 X104.61 Y112.948 E5.16695
G1 X104.93 Y112.103 E5.18498
G1 X105.308 Y111.32 E5.20233
G1 X105.517 Y110.93 E5.21116
G1 X105.665 Y110.663 E5.21725
G1 X105.799 Y110.43 E5.22262
G1 X106.283 Y109.668 E5.24063
G1 X106.793 Y108.999 E5.25742
G1 X107.062 Y108.675 E5.26582
G1 X107.289 Y108.412 E5.27276
G1 X107.466 Y108.213 E5.27807
G1 X108.095 Y107.566 E5.29608
G1 F2700 E0.29608
;MESH:SyncroVac Case V3 v19.stl
G0 F6000 X114.163 Y115.032
G0 X114.986 Y115.738
G0 X114.965 Y117.504
G0 X115.054 Y118.164
G0 X115.309 Y118.775
G0 X115.715 Y119.301
G0 X116.138 Y119.625
G0 X117.513 Y120.206
;TYPE:WALL-INNER
G1 F2700 E5.29608
G1 F1200 X117.623 Y120.192 E5.29829
G1 X118.204 Y120.113 E5.30999
G1 X118.214 Y120.111 E5.3102
G1 X118.703 Y119.909 E5.32076
G1 X118.866 Y119.841 E5.32428
G1 X119.148 Y119.623 E5.33139
G1 X119.425 Y119.409 E5.33838
G1 X119.536 Y119.264 E5.34202
G1 X119.853 Y118.852 E5.3524
G1 X119.858 Y118.838 E5.35269
G1 X120.082 Y118.294 E5.36443
G1 X120.122 Y118.196 E5.36655
G1 X120.179 Y117.766 E5.3752
G1 X120.215 Y117.496 E5.38064
G1 X120.181 Y117.24 E5.38579
G1 X120.12 Y116.794 E5.39478
G1 X120.087 Y116.714 E5.3965
G1 X119.862 Y116.17 E5.40825
G1 X119.85 Y116.143 E5.40884
