;FLAVOR:Marlin
;TIME:1087
;Filament used: 0.215742m
;Layer height: 0.12
;MINX:98.171
;MINY:97.951
;MINZ:0.12
;MAXX:130.329
;MAXY:138.297
;MAXZ:4.2
;Generated with Cura_SteamEngine 4.11.0
M140 S55
M105
M190 S55
M104 S200
M105
M109 S200
M82 ;absolute extrusion mode
; Ender 3 Custom Start G-code
G92 E0 ; Reset Extruder
G28 ; Home all axes
G1 Z2.0 F3000 ; Move Z Axis up little to prevent scratching of Heat Bed
G1 X0.1 Y20 Z0.3 F5000.0 ; Move to start position
G1 X0.1 Y200.0 Z0.3 F1500.0 E15 ; Draw the first line
G1 X0.4 Y200.0 Z0.3 F5000.0 ; Move to side a little
G1 X0.4 Y20 Z0.3 F1500.0 E30 ; Draw the second line
G92 E0 ; Reset Extruder
G1 Z2.0 F3000 ; Move Z Axis up little to prevent scratching of Heat Bed
G1 X5 Y20 Z0.3 F5000.0 ; Move over to prevent blob squish
G92 E0
G92 E0
G1 F2700 E-5
;LAYER_COUNT:35
;LAYER:0
M107
G0 F6000 X102.722 Y105.015 Z0.12
;TYPE:SKIRT
G1 F2700 E0
G1 F1200 X103.359 Y104.419 E0.01741
G1 X103.551 Y104.253 E0.02247
G1 X104.033 Y103.859 E0.0349
G1 X104.207 Y103.725 E0.03928
G1 X104.974 Y103.185 E0.058
G1 X106.037 Y102.583 E0.08238
G1 X106.142 Y102.531 E0.08472
G1 X107 Y102.151 E0.10344
G1 X107.886 Y101.845 E0.12215
G1 X108.796 Y101.616 E0.14087
G1 X109.722 Y101.465 E0.1596
G1 X110.657 Y101.394 E0.17831
G1 X111.126 Y101.388 E0.18767
G1 X111.825 Y101.396 E0.20162
G1 X113.271 Y101.43 E0.23049
G1 X115.794 Y101.42 E0.28084
G1 X117.256 Y101.391 E0.31002
G1 X118.194 Y101.413 E0.32874
G1 X119.126 Y101.515 E0.34745
G1 X120.047 Y101.696 E0.36618
G1 X120.948 Y101.955 E0.38489
G1 X121.824 Y102.289 E0.4036
G1 X122.841 Y102.791 E0.42623
G1 X123.016 Y102.889 E0.43024
G1 X123.814 Y103.382 E0.44895
G1 X124.622 Y103.986 E0.46909
G1 X124.924 Y104.234 E0.47688
G1 X125.623 Y104.86 E0.49561
G1 X126.266 Y105.542 E0.51432
G1 X127.029 Y106.535 E0.53931
G1 X127.462 Y107.169 E0.55463
G1 X128.116 Y108.106 E0.57743
G1 X128.409 Y108.536 E0.58781
G1 X128.904 Y109.333 E0.60654
G1 X129.329 Y110.169 E0.62525
G1 X129.681 Y111.038 E0.64396
G1 X129.898 Y111.715 E0.65815
G1 X130.117 Y112.627 E0.67687
G1 X130.257 Y113.554 E0.69558
G1 X130.316 Y114.418 E0.71286
G1 X130.325 Y114.728 E0.71905
G1 X130.329 Y115.199 E0.72845
G1 X130.318 Y115.994 E0.74431
G1 X130.318 Y118.607 E0.79646
G1 X130.328 Y119.155 E0.8074
G1 X130.329 Y119.709 E0.81845
G1 X130.32 Y120.376 E0.83177
G1 X130.267 Y121.313 E0.85049
G1 X130.135 Y122.241 E0.8692
G1 X129.924 Y123.155 E0.88792
G1 X129.636 Y124.048 E0.90664
G1 X129.274 Y124.913 E0.92536
G1 X128.838 Y125.743 E0.94407
G1 X128.166 Y126.767 E0.96851
G1 X127.411 Y127.788 E0.99385
G1 X126.893 Y128.506 E1.01152
G1 X126.73 Y128.725 E1.01697
G1 X126.518 Y129.004 E1.02396
G1 X125.92 Y129.726 E1.04267
G1 X125.262 Y130.394 E1.06138
G1 X124.778 Y130.819 E1.07423
G1 X124.603 Y130.964 E1.07877
G1 X123.856 Y131.531 E1.09748
G1 X123.064 Y132.033 E1.1162
G1 X122.411 Y132.379 E1.13094
G1 X122.284 Y132.441 E1.13376
G1 X121.424 Y132.816 E1.15249
G1 X120.536 Y133.117 E1.1712
G1 X119.625 Y133.34 E1.18991
G1 X118.698 Y133.486 E1.20864
G1 X117.763 Y133.552 E1.22735
G1 X117.293 Y133.555 E1.23673
G1 X116.146 Y133.537 E1.25962
G1 X115.545 Y133.52 E1.27162
G1 X113.043 Y133.518 E1.32155
G1 X112.094 Y133.543 E1.34049
G1 X111.161 Y133.556 E1.35911
G1 X110.224 Y133.529 E1.37782
G1 X109.292 Y133.422 E1.39654
G1 X108.373 Y133.237 E1.41525
G1 X107.473 Y132.973 E1.43397
G1 X106.598 Y132.634 E1.45269
G1 X105.756 Y132.222 E1.4714
G1 X104.951 Y131.74 E1.49012
G1 X104.192 Y131.191 E1.50882
G1 X103.926 Y130.981 E1.51558
G1 X103.215 Y130.369 E1.5343
G1 X102.559 Y129.698 E1.55303
G1 X101.94 Y128.944 E1.5725
G1 X100.95 Y127.623 E1.60544
G1 X100.817 Y127.442 E1.60992
G1 X100.244 Y126.644 E1.62953
G1 X99.73 Y125.859 E1.64825
G1 X99.284 Y125.034 E1.66697
G1 X98.911 Y124.174 E1.68567
G1 X98.612 Y123.285 E1.70439
G1 X98.39 Y122.373 E1.72312
G1 X98.247 Y121.447 E1.74182
G1 X98.184 Y120.543 E1.75991
G1 X98.175 Y120.229 E1.76617
G1 X98.171 Y119.761 E1.77551
G1 X98.182 Y118.968 E1.79134
G1 X98.182 Y116.347 E1.84365
G1 X98.172 Y115.799 E1.85458
G1 X98.171 Y115.254 E1.86546
G1 X98.18 Y114.586 E1.87879
G1 X98.233 Y113.649 E1.89752
G1 X98.365 Y112.721 E1.91623
G1 X98.576 Y111.807 E1.93495
G1 X98.863 Y110.914 E1.95366
G1 X99.226 Y110.05 E1.97237
G1 X99.661 Y109.219 E1.99108
G1 X100.151 Y108.449 E2.0093
G1 X100.466 Y107.996 E2.02031
G1 X100.954 Y107.275 E2.03768
G1 X101.524 Y106.456 E2.0576
G1 X102.092 Y105.71 E2.07631
G1 X102.722 Y105.015 E2.09503
G0 F6000 X103.031 Y105.272
G1 F1200 X103.62 Y104.721 E2.11112
G1 X103.812 Y104.555 E2.11619
G1 X104.277 Y104.176 E2.12816
G1 X104.451 Y104.042 E2.13254
G1 X105.205 Y103.512 E2.15093
G1 X106.215 Y102.941 E2.17409
G1 X106.32 Y102.889 E2.17643
G1 X107.162 Y102.517 E2.1948
G1 X108.033 Y102.219 E2.21317
G1 X108.927 Y101.998 E2.23154
G1 X109.836 Y101.855 E2.24991
G1 X111.122 Y101.788 E2.27561
G1 X111.816 Y101.796 E2.28946
G1 X113.264 Y101.83 E2.31836
G1 X115.807 Y101.82 E2.36911
G1 X117.264 Y101.791 E2.39819
G1 X118.184 Y101.813 E2.41656
G1 X119.099 Y101.916 E2.43493
G1 X120.002 Y102.097 E2.45331
G1 X120.885 Y102.356 E2.47167
G1 X121.743 Y102.69 E2.49005
G1 X122.645 Y103.14 E2.51016
G1 X122.82 Y103.238 E2.51417
G1 X123.603 Y103.723 E2.53255
G1 X124.368 Y104.295 E2.55161
G1 X124.67 Y104.543 E2.55941
G1 X125.356 Y105.158 E2.57779
G1 X125.985 Y105.83 E2.59616
G1 X126.699 Y106.76 E2.61956
G1 X127.123 Y107.382 E2.63458
G1 X127.786 Y108.331 E2.65768
G1 X128.079 Y108.761 E2.66807
G1 X128.564 Y109.544 E2.68645
G1 X128.979 Y110.366 E2.70482
G1 X129.321 Y111.22 E2.72318
G1 X129.513 Y111.825 E2.73585
G1 X129.727 Y112.72 E2.75421
G1 X129.863 Y113.631 E2.77259
G1 X129.917 Y114.429 E2.78856
G1 X129.926 Y114.739 E2.79475
G1 X129.929 Y115.194 E2.80383
G1 X129.918 Y115.989 E2.81969
G1 X129.918 Y118.615 E2.8721
G1 X129.928 Y119.157 E2.88291
G1 X129.929 Y119.704 E2.89383
G1 X129.92 Y120.371 E2.90714
G1 X129.868 Y121.29 E2.92551
G1 X129.736 Y122.201 E2.94388
G1 X129.525 Y123.098 E2.96227
G1 X129.238 Y123.972 E2.98063
G1 X128.875 Y124.819 E2.99902
G1 X128.441 Y125.63 E3.01737
G1 X127.844 Y126.53 E3.03893
G1 X127.048 Y127.606 E3.06564
G1 X126.568 Y128.272 E3.08202
G1 X126.412 Y128.483 E3.08726
G1 X126.2 Y128.762 E3.09425
G1 X125.612 Y129.47 E3.11262
G1 X124.964 Y130.125 E3.131
G1 X124.523 Y130.511 E3.1427
G1 X124.348 Y130.656 E3.14723
G1 X123.614 Y131.212 E3.16561
G1 X122.835 Y131.703 E3.18399
G1 X122.235 Y132.02 E3.19753
G1 X122.108 Y132.082 E3.20035
G1 X121.264 Y132.449 E3.21871
G1 X120.391 Y132.742 E3.23709
G1 X119.496 Y132.958 E3.25546
G1 X118.586 Y133.096 E3.27383
G1 X117.299 Y133.155 E3.29954
G1 X116.157 Y133.137 E3.32233
G1 X115.556 Y133.12 E3.33433
G1 X113.033 Y133.118 E3.38468
G1 X112.089 Y133.143 E3.40353
G1 X111.156 Y133.156 E3.42215
G1 X110.235 Y133.129 E3.44054
G1 X109.321 Y133.022 E3.4589
G1 X108.419 Y132.836 E3.47728
G1 X107.537 Y132.573 E3.49565
G1 X106.681 Y132.234 E3.51402
G1 X105.858 Y131.822 E3.53239
G1 X105.073 Y131.34 E3.55077
G1 X104.44 Y130.877 E3.56642
G1 X104.174 Y130.667 E3.57318
G1 X103.477 Y130.065 E3.59156
G1 X102.834 Y129.406 E3.60994
G1 X102.26 Y128.704 E3.62803
G1 X101.27 Y127.383 E3.66098
G1 X101.142 Y127.209 E3.66529
G1 X100.569 Y126.411 E3.68489
G1 X100.065 Y125.64 E3.70327
G1 X99.63 Y124.829 E3.72164
G1 X99.266 Y123.983 E3.74002
G1 X98.978 Y123.109 E3.75838
G1 X98.766 Y122.212 E3.77678
G1 X98.633 Y121.301 E3.79515
G1 X98.583 Y120.532 E3.81053
G1 X98.574 Y120.218 E3.8168
G1 X98.571 Y119.767 E3.8258
G1 X98.582 Y118.974 E3.84162
G1 X98.582 Y116.339 E3.89421
G1 X98.572 Y115.796 E3.90505
G1 X98.571 Y115.259 E3.91576
G1 X98.58 Y114.591 E3.92909
G1 X98.632 Y113.672 E3.94746
G1 X98.764 Y112.761 E3.96583
G1 X98.975 Y111.865 E3.9842
G1 X99.262 Y110.99 E4.00258
G1 X99.625 Y110.144 E4.02095
G1 X100.059 Y109.332 E4.03932
G1 X100.48 Y108.677 E4.05486
G1 X100.757 Y108.28 E4.06452
G1 X101.283 Y107.504 E4.08323
G1 X101.853 Y106.685 E4.10314
G1 X102.411 Y105.953 E4.12151
G1 X103.031 Y105.272 E4.13989
G0 F6000 X103.339 Y105.529
G1 F1200 X103.882 Y105.024 E4.15469
G1 X104.074 Y104.858 E4.15975
G1 X104.521 Y104.493 E4.17127
G1 X104.695 Y104.359 E4.17565
G1 X105.435 Y103.84 E4.19369
G1 X106.392 Y103.299 E4.21563
G1 X106.497 Y103.247 E4.21797
G1 X107.324 Y102.883 E4.236
G1 X108.179 Y102.593 E4.25402
G1 X109.056 Y102.38 E4.27203
G1 X109.949 Y102.245 E4.29005
G1 X111.118 Y102.188 E4.31341
G1 X111.806 Y102.196 E4.32714
G1 X113.256 Y102.23 E4.35608
G1 X115.82 Y102.22 E4.40725
G1 X117.272 Y102.191 E4.43623
G1 X118.174 Y102.214 E4.45424
G1 X119.072 Y102.316 E4.47227
G1 X119.956 Y102.498 E4.49028
G1 X120.822 Y102.757 E4.50832
G1 X121.66 Y103.091 E4.52633
G1 X122.45 Y103.489 E4.54398
G1 X122.625 Y103.587 E4.54798
G1 X123.392 Y104.063 E4.566
G1 X124.114 Y104.604 E4.584
G1 X124.416 Y104.852 E4.5918
G1 X125.088 Y105.456 E4.60983
G1 X125.704 Y106.116 E4.62785
G1 X126.368 Y106.985 E4.64967
G1 X126.764 Y107.566 E4.6637
G1 X127.455 Y108.556 E4.6878
G1 X127.748 Y108.986 E4.69818
G1 X128.223 Y109.754 E4.7162
G1 X128.628 Y110.562 E4.73424
G1 X128.961 Y111.401 E4.75225
G1 X129.129 Y111.935 E4.76342
G1 X129.338 Y112.813 E4.78143
G1 X129.469 Y113.707 E4.79946
G1 X129.517 Y114.441 E4.81414
G1 X129.526 Y114.751 E4.82033
G1 X129.529 Y115.188 E4.82905
G1 X129.518 Y115.983 E4.84492
G1 X129.518 Y118.624 E4.89762
G1 X129.528 Y119.159 E4.9083
G1 X129.529 Y119.699 E4.91908
G1 X129.52 Y120.366 E4.93239
G1 X129.468 Y121.267 E4.9504
G1 X129.336 Y122.161 E4.96844
G1 X129.126 Y123.039 E4.98645
G1 X128.839 Y123.895 E5.00447
G1 X128.477 Y124.723 E5.0225
G1 X128.044 Y125.515 E5.04051
G1 X127.523 Y126.292 E5.05918
G1 X126.723 Y127.375 E5.08605
G1 X126.244 Y128.038 E5.10238
G1 X126.093 Y128.241 E5.10742
G1 X125.881 Y128.52 E5.11442
G1 X125.304 Y129.214 E5.13243
G1 X124.667 Y129.855 E5.15046
G1 X124.268 Y130.203 E5.16103
G1 X124.093 Y130.348 E5.16556
G1 X123.373 Y130.893 E5.18358
G1 X122.607 Y131.372 E5.20161
G1 X122.06 Y131.66 E5.21395
G1 X121.933 Y131.722 E5.21677
G1 X121.104 Y132.082 E5.23481
G1 X120.248 Y132.367 E5.25281
G1 X119.369 Y132.575 E5.27084
G1 X118.475 Y132.705 E5.28886
G1 X117.305 Y132.755 E5.31223
G1 X116.168 Y132.737 E5.33493
G1 X115.568 Y132.72 E5.34691
G1 X113.022 Y132.718 E5.39771
G1 X112.083 Y132.743 E5.41646
G1 X111.15 Y132.756 E5.43508
G1 X110.247 Y132.729 E5.45311
G1 X109.351 Y132.621 E5.47112
G1 X108.467 Y132.435 E5.48915
G1 X107.603 Y132.172 E5.50717
G1 X106.766 Y131.833 E5.52519
G1 X105.962 Y131.422 E5.54321
G1 X105.198 Y130.94 E5.56124
G1 X104.688 Y130.563 E5.57389
G1 X104.422 Y130.353 E5.58066
G1 X103.738 Y129.762 E5.5987
G1 X103.11 Y129.114 E5.6167
G1 X102.58 Y128.464 E5.63344
G1 X101.59 Y127.143 E5.66638
G1 X101.467 Y126.975 E5.67054
G1 X100.894 Y126.177 E5.69014
G1 X100.4 Y125.421 E5.70817
G1 X99.975 Y124.624 E5.72619
G1 X99.622 Y123.793 E5.74421
G1 X99.344 Y122.934 E5.76223
G1 X99.144 Y122.053 E5.78026
G1 X99.022 Y121.158 E5.79828
G1 X98.983 Y120.52 E5.81104
G1 X98.974 Y120.206 E5.81731
G1 X98.971 Y119.773 E5.82595
G1 X98.982 Y118.98 E5.84177
G1 X98.982 Y116.331 E5.89464
G1 X98.972 Y115.794 E5.90536
G1 X98.971 Y115.265 E5.91591
G1 X98.98 Y114.597 E5.92924
G1 X99.032 Y113.695 E5.94728
G1 X99.164 Y112.802 E5.96529
G1 X99.374 Y111.923 E5.98332
G1 X99.661 Y111.067 E6.00134
G1 X100.023 Y110.239 E6.01938
G1 X100.456 Y109.447 E6.03739
G1 X100.808 Y108.906 E6.05027
G1 X101.095 Y108.494 E6.06029
G1 X101.611 Y107.732 E6.07865
G1 X102.181 Y106.913 E6.09857
G1 X102.729 Y106.196 E6.11658
G1 X103.339 Y105.529 E6.13461
G1 F2700 E1.13461
;MESH:SyncroVac STEP DOWN v1.stl(1)
G0 F6000 X109.483 Y114.066
G0 X109.483 Y115.045
G0 X110.874 Y115.404
G0 X111.054 Y120.031
G1 F2700 E6.13461
G0 F6000 X111.254 Y120.031
;TYPE:WALL-OUTER
G1 F1200 X111.254 Y122.038 E6.17467
G1 X111.001 Y122.314 E6.18214
G1 X110.748 Y122.041 E6.18957
G1 X110.746 Y120.032 E6.22966
G1 X109.369 Y120.031 E6.25714
G1 X109.369 Y119.431 E6.26911
G1 X110.746 Y119.431 E6.29659
G1 X110.746 Y115.532 E6.3744
G1 X109.369 Y115.531 E6.40188
G1 X109.369 Y114.931 E6.41385
G1 X110.746 Y114.931 E6.44133
G1 X110.746 Y112.828 E6.4833
G1 X110.999 Y112.624 E6.48978
G1 X111.252 Y112.826 E6.49625
G1 X111.254 Y114.93 E6.53823
G1 X112.631 Y114.931 E6.56571
G1 X112.631 Y115.531 E6.57769
G1 X111.254 Y115.531 E6.60517
G1 X111.254 Y119.43 E6.68297
G1 X112.631 Y119.431 E6.71045
G1 X112.631 Y120.031 E6.72243
G1 X111.254 Y120.031 E6.74991
G0 F6000 X111.078 Y120.129
;TYPE:SKIN
G1 F1200 X110.921 Y119.971 E6.75213
G0 F6000 X110.679 Y119.73
G1 F1200 X110.396 Y119.73 E6.75663
G1 X109.608 Y119.79 E6.76921
G0 F6000 X109.672 Y119.832
G0 X110.837 Y119.631
G0 X110.962 Y119.73
G1 F1200 X111.244 Y119.729 E6.77364
G1 X112.353 Y119.707 E6.79108
G0 F6000 X112.251 Y119.63
G0 X111.084 Y119.6
G0 X111 Y119.485
G1 F1200 X111 Y119.202 E6.79368
G1 X111 Y115.525 E6.8275
G1 X110.704 Y115.23 E6.83134
G1 X109.621 Y115.278 E6.84131
G0 F6000 X109.698 Y115.332
G0 X110.916 Y115.101
G0 X110.987 Y115.23
G1 F1200 X111.27 Y115.229 E6.84573
G1 X112.366 Y115.194 E6.86282
G0 F6000 X112.276 Y115.13
G0 X111.084 Y115.1
G0 X111 Y114.959
G1 F1200 X111 Y114.676 E6.86542
G1 X111.001 Y112.981 E6.88103
G0 F6000 X110.941 Y112.927
G0 X110.947 Y120.255
G0 X110.999 Y120.333
G1 F1200 X110.999 Y120.616 E6.88359
G1 X110.967 Y121.998 E6.89612
G1 F2700 E1.89612
;MESH:SyncroVac STEP DOWN v1.stl
G0 F6000 X111 Y122.02
G0 X111.134 Y120.031
G0 X112.107 Y120.884
G0 X116.394 Y120.885
G0 X117.347 Y120.025
G1 F2700 E6.89612
G0 F6000 X117.754 Y120.031
;TYPE:WALL-OUTER
G1 F1200 X117.754 Y122.038 E6.93617
G1 X117.501 Y122.314 E6.94364
G1 X117.248 Y122.041 E6.95107
G1 X117.246 Y120.032 E6.99116
G1 X115.869 Y120.031 E7.01864
G1 X115.869 Y119.431 E7.03061
G1 X117.246 Y119.431 E7.05809
G1 X117.246 Y115.532 E7.1359
G1 X115.869 Y115.531 E7.16338
G1 X115.869 Y114.931 E7.17535
G1 X117.246 Y114.931 E7.20283
G1 X117.246 Y112.828 E7.2448
G1 X117.499 Y112.624 E7.25129
G1 X117.752 Y112.826 E7.25775
G1 X117.754 Y114.93 E7.29974
G1 X119.131 Y114.931 E7.32722
G1 X119.131 Y115.531 E7.33919
G1 X117.754 Y115.531 E7.36667
G1 X117.754 Y119.43 E7.44448
G1 X119.131 Y119.431 E7.47196
G1 X119.131 Y120.031 E7.48393
G1 X117.754 Y120.031 E7.51141
G0 F6000 X117.579 Y120.124
;TYPE:SKIN
G1 F1200 X117.42 Y119.966 E7.51365
G0 F6000 X117.184 Y119.73
G1 F1200 X116.901 Y119.73 E7.51816
G1 X116.111 Y119.787 E7.53079
G0 F6000 X116.178 Y119.832
G0 X117.342 Y119.631
G0 X117.467 Y119.73
G1 F1200 X117.75 Y119.729 E7.53523
G1 X118.855 Y119.704 E7.55258
G0 F6000 X118.756 Y119.63
G0 X117.584 Y119.6
G0 X117.499 Y119.479
G1 F1200 X117.499 Y119.196 E7.55519
G1 X117.499 Y115.519 E7.58916
G1 X117.21 Y115.23 E7.59293
G1 X116.123 Y115.274 E7.60298
G0 F6000 X116.204 Y115.332
G0 X117.416 Y115.101
G0 X117.493 Y115.23
G1 F1200 X117.776 Y115.23 E7.60738
G1 X118.868 Y115.191 E7.62436
G0 F6000 X118.782 Y115.13
G0 X117.584 Y115.1
G0 X117.499 Y114.953
G1 F1200 X117.499 Y114.67 E7.62697
G1 X117.503 Y112.977 E7.64255
G0 F6000 X117.444 Y112.925
G0 X117.447 Y120.25
G0 X117.499 Y120.328
G1 F1200 X117.499 Y120.611 E7.64532
G1 X117.5 Y121.742 E7.65641
G0 F6000 X117.422 Y121.947
G1 F1200 X117.514 Y122.04 E7.65772
G1 F2700 E2.65772
;MESH:NONMESH
G0 F300 X117.514 Y122.04 Z0.24
G0 F6000 X117.5 Y122.02
G0 X116.383 Y121.946
G0 X112.119 Y121.945
G0 X111.134 Y121.945
G1 F2700 E7.65772
G0 F6000 X111.144 Y122.026
;TIME_ELAPSED:28.980660
;LAYER:1
M106 S85
;TYPE:WALL-INNER
;MESH:SyncroVac STEP DOWN v1.stl(1)
G1 F755.1 X111.127 Y122.095 E7.65914
G1 X111.109 Y122.162 E7.66052
G1 X111.077 Y122.239 E7.66219
G1 X111.001 Y122.419 E7.66609
G1 X110.925 Y122.241 E7.66705
G1 X110.891 Y122.162 E7.66744
G1 X110.874 Y122.096 E7.66794
G1 X110.856 Y122.026 E7.6689
G1 X110.856 Y112.855 E7.85192
G1 X110.901 Y112.751 E7.85418
