;FLAVOR:Marlin
;TIME:5989
;Filament used: 3.22787m
;Layer height: 0.16
;MINX:50.018
;MINY:75.5
;MINZ:0.2
;MAXX:164.848
;MAXY:159.5
;MAXZ:10.96
;Generated with Cura_SteamEngine 4.11.0
M140 S50
M105
M190 S50
M104 S200
M105
M109 S200
M82 ;absolute extrusion mode
; Ender 3 Custom Start G-code
G92 E0 ; Reset Extruder
G28 ; Home all axes
G1 Z2.0 F3000 ; Move Z Axis up little to prevent scratching of Heat Bed
G1 X0.1 Y20 Z0.3 F5000.0 ; Move to start position
G1 X0.1 Y200.0 Z0.3 F1500.0 E15 ; Draw the first line
G1 X0.4 Y200.0 Z0.3 F5000.0 ; Move to side a little
G1 X0.4 Y20 Z0.3 F1500.0 E30 ; Draw the second line
G92 E0 ; Reset Extruder
G1 Z2.0 F3000 ; Move Z Axis up little to prevent scratching of Heat Bed
G1 X5 Y20 Z0.3 F5000.0 ; Move over to prevent blob squish
G92 E0
G92 E0
G1 F2700 E-5
;LAYER_COUNT:63
;LAYER:0
M107
G0 F6000 X55.44 Y88.034 Z0.2
;TYPE:SKIRT
G1 F2700 E0
G1 F1200 X56.268 Y87.592 E0.03122
G1 X57.13 Y87.223 E0.0624
G1 X58.02 Y86.928 E0.09359
G1 X58.932 Y86.71 E0.12478
G1 X59.925 Y86.564 E0.15816
G1 X62.495 Y86.305 E0.24407
G1 X64.995 Y85.981 E0.32792
G1 X67.47 Y85.591 E0.41125
G1 X69.934 Y85.13 E0.49463
G1 X72.403 Y84.595 E0.57865
G1 X74.79 Y84.008 E0.66041
G1 X77.301 Y83.313 E0.74707
G1 X79.67 Y82.584 E0.8295
G1 X82.044 Y81.782 E0.91285
G1 X84.429 Y80.898 E0.99745
G1 X86.763 Y79.957 E1.08115
G1 X89.063 Y78.953 E1.16462
G1 X91.346 Y77.881 E1.2485
G1 X93.699 Y76.692 E1.33619
G1 X94.553 Y76.305 E1.36737
G1 X95.437 Y75.992 E1.39856
G1 X96.345 Y75.756 E1.42977
G1 X97.269 Y75.598 E1.46095
G1 X98.324 Y75.515 E1.49614
G1 X98.652 Y75.505 E1.50706
G1 X98.987 Y75.5 E1.5182
G1 X108.95 Y75.5 E1.84957
G1 X109.808 Y75.511 E1.87811
G1 X110.744 Y75.564 E1.90929
G1 X111.911 Y75.745 E1.94857
G1 X112.403 Y75.85 E1.96531
G1 X114.456 Y76.323 E2.03538
G1 X116.94 Y76.822 E2.11965
G1 X119.412 Y77.246 E2.20307
G1 X121.92 Y77.603 E2.28732
G1 X124.4 Y77.886 E2.37034
G1 X126.915 Y78.1 E2.45429
G1 X129.43 Y78.242 E2.53808
G1 X131.945 Y78.315 E2.62176
G1 X133.29 Y78.324 E2.6665
G1 X134.059 Y78.325 E2.69207
G1 X134.761 Y78.335 E2.71543
G1 X135.697 Y78.388 E2.74661
G1 X136.625 Y78.521 E2.77779
G1 X137.539 Y78.733 E2.80899
G1 X138.432 Y79.021 E2.8402
G1 X139.296 Y79.385 E2.87139
G1 X140.027 Y79.764 E2.89877
G1 X140.434 Y80.003 E2.91447
G1 X140.645 Y80.133 E2.92271
G1 X140.895 Y80.291 E2.93255
G1 X141.129 Y80.444 E2.94185
G1 X141.891 Y80.991 E2.97305
G1 X142.57 Y81.568 E3.00268
G1 X142.674 Y81.664 E3.00739
G1 X143.335 Y82.329 E3.03858
G1 X143.938 Y83.048 E3.06979
G1 X144.405 Y83.705 E3.0966
G1 X145.08 Y84.735 E3.13756
G1 X145.328 Y85.126 E3.15296
G1 X146.724 Y87.189 E3.2358
G1 X148.213 Y89.262 E3.3207
G1 X149.733 Y91.255 E3.40406
G1 X151.345 Y93.251 E3.4894
G1 X152.148 Y94.203 E3.53082
G1 X152.719 Y94.868 E3.55997
G1 X153.299 Y95.605 E3.59117
G1 X153.814 Y96.389 E3.62236
G1 X154.261 Y97.215 E3.6536
G1 X154.823 Y98.369 E3.69629
G1 X155.987 Y100.674 E3.78218
G1 X157.189 Y102.896 E3.8662
G1 X158.444 Y105.064 E3.94952
G1 X159.781 Y107.232 E4.03424
G1 X161.138 Y109.3 E4.11651
G1 X161.723 Y110.132 E4.15033
G1 X161.844 Y110.321 E4.1578
G1 X162.554 Y111.347 E4.1993
G1 X162.726 Y111.604 E4.20958
G1 X162.894 Y111.862 E4.21982
G1 X163.09 Y112.174 E4.23208
G1 X163.252 Y112.442 E4.24249
G1 X163.702 Y113.264 E4.27366
G1 X164.081 Y114.122 E4.30486
G1 X164.385 Y115.009 E4.33605
G1 X164.613 Y115.919 E4.36725
G1 X164.762 Y116.845 E4.39844
G1 X164.829 Y117.686 E4.4265
G1 X164.84 Y118.072 E4.43935
G1 X164.848 Y118.779 E4.46286
G1 X164.847 Y132.542 E4.92062
G1 X164.837 Y133.272 E4.94491
G1 X164.784 Y134.208 E4.97609
G1 X164.652 Y135.137 E5.0073
G1 X164.441 Y136.05 E5.03846
G1 X164.153 Y136.943 E5.06967
G1 X163.79 Y137.808 E5.10087
G1 X163.354 Y138.638 E5.13205
G1 X162.85 Y139.429 E5.16325
G1 X162.28 Y140.174 E5.19445
G1 X161.648 Y140.867 E5.22564
G1 X160.96 Y141.504 E5.25683
G1 X160.22 Y142.08 E5.28802
G1 X159.434 Y142.591 E5.3192
G1 X158.939 Y142.867 E5.33805
G1 X157.931 Y143.395 E5.3759
G1 X155.652 Y144.628 E5.46208
G1 X153.469 Y145.891 E5.54596
G1 X151.349 Y147.198 E5.6288
G1 X149.211 Y148.602 E5.71387
G1 X147.169 Y150.026 E5.79667
G1 X145.153 Y151.52 E5.88013
G1 X143.156 Y153.088 E5.96458
G1 X142.275 Y153.818 E6.00263
G1 X141.743 Y154.246 E6.02534
G1 X140.964 Y154.818 E6.05749
G1 X140.813 Y154.919 E6.06353
G1 X140.395 Y155.185 E6.08001
G1 X140.035 Y155.403 E6.094
G1 X139.213 Y155.854 E6.12519
G1 X138.355 Y156.234 E6.1564
G1 X137.468 Y156.539 E6.1876
G1 X136.558 Y156.767 E6.2188
G1 X135.633 Y156.917 E6.24997
G1 X134.763 Y156.986 E6.27899
G1 X134.334 Y156.998 E6.29327
G1 X133.773 Y157.004 E6.31193
G1 X131.903 Y157.004 E6.37412
G1 X129.295 Y157.041 E6.46088
G1 X126.773 Y157.148 E6.54483
G1 X124.278 Y157.325 E6.62803
G1 X121.78 Y157.573 E6.71152
G1 X119.291 Y157.891 E6.79498
G1 X116.782 Y158.285 E6.87945
G1 X114.295 Y158.747 E6.96358
G1 X112.215 Y159.195 E7.03435
G1 X111.799 Y159.278 E7.04846
G1 X110.873 Y159.423 E7.07963
G1 X109.956 Y159.487 E7.11021
G1 X109.636 Y159.496 E7.12085
G1 X109.327 Y159.5 E7.13113
G1 X99.192 Y159.499 E7.46822
G1 X98.489 Y159.488 E7.49161
G1 X97.553 Y159.433 E7.52279
G1 X96.624 Y159.299 E7.55401
G1 X95.711 Y159.086 E7.58519
G1 X94.819 Y158.796 E7.61639
G1 X93.723 Y158.318 E7.65616
G1 X92.628 Y157.768 E7.69691
G1 X92.352 Y157.636 E7.70709
G1 X91.869 Y157.388 E7.72515
G1 X89.591 Y156.298 E7.80914
G1 X87.291 Y155.276 E7.89285
G1 X84.919 Y154.301 E7.97815
G1 X82.629 Y153.438 E8.05954
G1 X80.238 Y152.61 E8.1437
G1 X77.831 Y151.853 E8.22763
G1 X75.417 Y151.168 E8.31109
G1 X72.96 Y150.545 E8.39539
G1 X70.472 Y149.988 E8.48019
G1 X68.069 Y149.523 E8.5616
G1 X65.552 Y149.108 E8.64644
G1 X63.051 Y148.768 E8.73039
G1 X61.069 Y148.549 E8.79672
G1 X59.933 Y148.436 E8.83469
G1 X59.005 Y148.303 E8.86587
G1 X58.091 Y148.091 E8.89707
G1 X57.199 Y147.802 E8.92826
G1 X56.334 Y147.439 E8.95946
G1 X55.504 Y147.003 E8.99064
G1 X54.714 Y146.498 E9.02183
G1 X53.969 Y145.927 E9.05305
G1 X53.276 Y145.296 E9.08422
G1 X52.64 Y144.607 E9.11541
G1 X52.064 Y143.867 E9.1466
G1 X51.553 Y143.08 E9.17781
G1 X51.111 Y142.253 E9.209
G1 X50.742 Y141.391 E9.24018
G1 X50.447 Y140.5 E9.2714
G1 X50.229 Y139.588 E9.30259
G1 X50.089 Y138.661 E9.33377
G1 X50.031 Y137.788 E9.36287
G1 X50.022 Y137.456 E9.37392
G1 X50.018 Y137.158 E9.38383
G1 X50.019 Y98.038 E10.68496
G1 X50.029 Y97.349 E10.70788
G1 X50.083 Y96.413 E10.73907
G1 X50.216 Y95.485 E10.77025
G1 X50.428 Y94.571 E10.80145
G1 X50.716 Y93.679 E10.83263
G1 X51.08 Y92.814 E10.86384
G1 X51.516 Y91.984 E10.89503
G1 X52.021 Y91.194 E10.92621
G1 X52.592 Y90.45 E10.9574
G1 X53.224 Y89.757 E10.9886
G1 X53.913 Y89.12 E11.01981
G1 X54.653 Y88.544 E11.051
G1 X55.44 Y88.034 E11.08219
G0 F6000 X55.819 Y88.277
G1 F1200 X56.64 Y87.86 E11.11282
G1 X57.494 Y87.516 E11.14344
G1 X58.374 Y87.247 E11.17405
G1 X59.275 Y87.055 E11.20469
G1 X59.965 Y86.962 E11.22784
G1 X62.554 Y86.701 E11.31439
G1 X65.033 Y86.38 E11.39753
G1 X67.534 Y85.986 E11.48174
G1 X69.993 Y85.525 E11.56495
G1 X72.503 Y84.982 E11.65036
G1 X74.928 Y84.385 E11.73343
G1 X77.378 Y83.707 E11.81798
G1 X79.81 Y82.959 E11.90261
G1 X82.174 Y82.16 E11.9856
G1 X84.568 Y81.273 E12.07052
G1 X86.906 Y80.331 E12.15435
G1 X89.244 Y79.31 E12.23921
G1 X91.517 Y78.242 E12.32274
G1 X93.879 Y77.049 E12.41075
G1 X94.718 Y76.67 E12.44137
G1 X95.587 Y76.365 E12.472
G1 X96.479 Y76.137 E12.50262
G1 X97.387 Y75.987 E12.53323
G1 X98.336 Y75.915 E12.56489
G1 X98.664 Y75.905 E12.5758
G1 X98.987 Y75.9 E12.58655
G1 X108.95 Y75.9 E12.91792
G1 X109.802 Y75.911 E12.94626
G1 X110.721 Y75.964 E12.97687
G1 X111.829 Y76.136 E13.01417
G1 X112.313 Y76.24 E13.03063
G1 X114.392 Y76.719 E13.10159
G1 X116.825 Y77.208 E13.18413
G1 X119.36 Y77.643 E13.26968
G1 X121.855 Y77.998 E13.3535
G1 X124.357 Y78.283 E13.43725
G1 X126.895 Y78.499 E13.52197
G1 X129.395 Y78.641 E13.60526
G1 X131.978 Y78.715 E13.6912
G1 X133.287 Y78.724 E13.73474
G1 X134.053 Y78.725 E13.76022
G1 X134.755 Y78.735 E13.78357
G1 X135.674 Y78.788 E13.81419
G1 X136.585 Y78.921 E13.84481
G1 X137.481 Y79.132 E13.87543
G1 X138.356 Y79.42 E13.90606
G1 X139.202 Y79.783 E13.93668
G1 X139.83 Y80.112 E13.96026
G1 X140.224 Y80.343 E13.97545
G1 X140.435 Y80.473 E13.9837
G1 X140.676 Y80.626 E13.99319
G1 X140.91 Y80.779 E14.00249
G1 X141.658 Y81.316 E14.03312
G1 X142.299 Y81.862 E14.06112
G1 X142.403 Y81.958 E14.06583
G1 X143.052 Y82.611 E14.09645
G1 X143.641 Y83.318 E14.12706
G1 X144.071 Y83.925 E14.1518
G1 X144.652 Y84.809 E14.18698
G1 X144.986 Y85.334 E14.20768
G1 X146.412 Y87.442 E14.29233
G1 X147.874 Y89.476 E14.37564
G1 X149.419 Y91.503 E14.46041
G1 X151.055 Y93.528 E14.54699
G1 X151.844 Y94.464 E14.58771
G1 X152.415 Y95.129 E14.61686
G1 X152.984 Y95.853 E14.64749
G1 X153.488 Y96.623 E14.6781
G1 X153.902 Y97.391 E14.70712
G1 X154.465 Y98.546 E14.74985
G1 X155.636 Y100.866 E14.83629
G1 X156.834 Y103.08 E14.92002
G1 X158.115 Y105.294 E15.00509
G1 X159.433 Y107.431 E15.0886
G1 X160.805 Y109.52 E15.17173
G1 X161.396 Y110.362 E15.20594
G1 X161.515 Y110.548 E15.21329
G1 X162.225 Y111.574 E15.25478
G1 X162.391 Y111.822 E15.26471
G1 X162.559 Y112.08 E15.27495
G1 X162.747 Y112.381 E15.28675
G1 X162.909 Y112.649 E15.29717
G1 X163.351 Y113.456 E15.32777
G1 X163.721 Y114.299 E15.35839
G1 X164.016 Y115.171 E15.38901
G1 X164.235 Y116.066 E15.41966
G1 X164.375 Y116.976 E15.45028
G1 X164.429 Y117.703 E15.47453
G1 X164.44 Y118.077 E15.48697
G1 X164.448 Y118.779 E15.51032
G1 X164.447 Y132.536 E15.96788
G1 X164.437 Y133.266 E15.99216
G1 X164.384 Y134.185 E16.02278
G1 X164.252 Y135.096 E16.0534
G1 X164.042 Y135.993 E16.08404
G1 X163.754 Y136.867 E16.11464
G1 X163.391 Y137.714 E16.14529
G1 X162.957 Y138.525 E16.17589
G1 X162.454 Y139.296 E16.2065
G1 X161.885 Y140.02 E16.23713
G1 X161.256 Y140.693 E16.26777
G1 X160.571 Y141.308 E16.29839
G1 X159.835 Y141.861 E16.32901
G1 X158.754 Y142.512 E16.37098
G1 X157.732 Y143.047 E16.40935
G1 X155.482 Y144.265 E16.49444
G1 X153.264 Y145.548 E16.57967
G1 X151.117 Y146.872 E16.66356
G1 X148.992 Y148.266 E16.74809
G1 X146.948 Y149.693 E16.831
G1 X144.891 Y151.217 E16.91615
G1 X142.899 Y152.781 E17.00039
G1 X142.024 Y153.506 E17.03818
G1 X141.492 Y153.934 E17.06089
G1 X140.741 Y154.486 E17.09189
G1 X140.59 Y154.587 E17.09793
G1 X140.188 Y154.843 E17.11378
G1 X139.828 Y155.061 E17.12778
G1 X139.02 Y155.503 E17.15841
G1 X138.177 Y155.874 E17.18905
G1 X137.306 Y156.17 E17.21964
G1 X136.411 Y156.389 E17.25029
G1 X135.502 Y156.53 E17.28089
G1 X134.748 Y156.586 E17.30603
G1 X134.33 Y156.598 E17.31994
G1 X133.773 Y156.604 E17.33847
G1 X131.897 Y156.604 E17.40086
G1 X129.272 Y156.641 E17.48818
G1 X126.764 Y156.748 E17.57167
G1 X124.247 Y156.926 E17.6556
G1 X121.723 Y157.176 E17.73996
G1 X119.215 Y157.497 E17.82405
G1 X116.753 Y157.884 E17.90695
G1 X114.203 Y158.358 E17.99321
G1 X112.137 Y158.803 E18.0635
G1 X111.721 Y158.886 E18.07761
G1 X110.811 Y159.027 E18.10824
G1 X109.945 Y159.087 E18.13711
G1 X109.625 Y159.096 E18.14776
G1 X109.327 Y159.1 E18.15767
G1 X99.198 Y159.099 E18.49456
G1 X98.495 Y159.088 E18.51795
G1 X97.576 Y159.033 E18.54857
G1 X96.665 Y158.899 E18.5792
G1 X95.769 Y158.687 E18.60982
G1 X94.895 Y158.398 E18.64044
G1 X93.903 Y157.961 E18.67649
G1 X92.64 Y157.327 E18.72349
G1 X92.535 Y157.28 E18.72732
G1 X92.046 Y157.029 E18.7456
G1 X89.761 Y155.935 E18.82986
G1 X87.457 Y154.912 E18.91371
G1 X85.076 Y153.933 E18.99933
G1 X82.764 Y153.062 E19.08151
G1 X80.341 Y152.223 E19.16679
G1 X77.955 Y151.472 E19.24999
G1 X75.511 Y150.779 E19.33448
G1 X73.041 Y150.153 E19.41923
G1 X70.57 Y149.599 E19.50346
G1 X68.138 Y149.129 E19.58584
G1 X65.599 Y148.71 E19.67143
G1 X63.109 Y148.372 E19.75501
G1 X61.055 Y148.145 E19.82374
G1 X59.973 Y148.037 E19.85991
G1 X59.062 Y147.906 E19.89052
G1 X58.165 Y147.696 E19.92116
G1 X57.291 Y147.41 E19.95175
G1 X56.444 Y147.048 E19.98238
G1 X55.632 Y146.614 E20.013
G1 X54.861 Y146.112 E20.04361
G1 X54.136 Y145.544 E20.07424
G1 X53.463 Y144.916 E20.10485
G1 X52.847 Y144.231 E20.13549
G1 X52.293 Y143.496 E20.16611
G1 X51.805 Y142.716 E20.19671
G1 X51.386 Y141.896 E20.22734
G1 X51.04 Y141.042 E20.25798
G1 X50.769 Y140.163 E20.28858
G1 X50.576 Y139.262 E20.31922
G1 X50.462 Y138.349 E20.34983
G1 X50.431 Y137.777 E20.36888
G1 X50.422 Y137.445 E20.37993
G1 X50.418 Y137.158 E20.38947
G1 X50.419 Y98.044 E21.69041
G1 X50.429 Y97.355 E21.71333
G1 X50.482 Y96.436 E21.74394
G1 X50.615 Y95.525 E21.77457
G1 X50.827 Y94.629 E21.80519
G1 X51.115 Y93.755 E21.8358
G1 X51.478 Y92.909 E21.86642
G1 X51.913 Y92.097 E21.89705
G1 X52.417 Y91.327 E21.92766
G1 X52.986 Y90.603 E21.95829
G1 X53.616 Y89.931 E21.98893
G1 X54.301 Y89.317 E22.01952
G1 X55.038 Y88.764 E22.05017
G1 X55.819 Y88.277 E22.08078
G0 F6000 X56.197 Y88.526
G1 F1200 X57.01 Y88.134 E22.1108
G1 X57.855 Y87.815 E22.14084
G1 X58.725 Y87.572 E22.17089
G1 X60.005 Y87.36 E22.21404
G1 X62.574 Y87.101 E22.29992
G1 X65.115 Y86.772 E22.38514
G1 X67.598 Y86.38 E22.46874
G1 X70.08 Y85.916 E22.55273
G1 X72.578 Y85.375 E22.63774
G1 X75.025 Y84.773 E22.72155
G1 X77.498 Y84.088 E22.8069
G1 X79.94 Y83.337 E22.89187
G1 X82.304 Y82.538 E22.97487
G1 X84.725 Y81.641 E23.06074
G1 X87.067 Y80.697 E23.14473
G1 X89.395 Y79.681 E23.22921
G1 X91.703 Y78.597 E23.31402
G1 X94.06 Y77.406 E23.40185
G1 X94.883 Y77.035 E23.43188
G1 X95.736 Y76.738 E23.46192
G1 X96.612 Y76.518 E23.49196
G1 X97.503 Y76.376 E23.52197
G1 X98.348 Y76.315 E23.55015
G1 X98.676 Y76.305 E23.56106
G1 X98.987 Y76.3 E23.57141
G1 X108.95 Y76.3 E23.90278
G1 X109.796 Y76.311 E23.93092
G1 X110.698 Y76.364 E23.96097
G1 X111.747 Y76.528 E23.99629
G1 X112.224 Y76.63 E24.01251
G1 X114.296 Y77.108 E24.08323
G1 X116.791 Y77.609 E24.16788
G1 X119.272 Y78.034 E24.2516
G1 X121.785 Y78.392 E24.33602
G1 X124.349 Y78.684 E24.42185
G1 X126.837 Y78.896 E24.5049
G1 X129.398 Y79.041 E24.59022
G1 X131.963 Y79.115 E24.67557
G1 X133.284 Y79.124 E24.7195
G1 X134.047 Y79.125 E24.74488
G1 X134.749 Y79.135 E24.76823
G1 X135.651 Y79.188 E24.79829
G1 X136.544 Y79.32 E24.82831
G1 X137.422 Y79.531 E24.85834
G1 X138.278 Y79.819 E24.88838
G1 X139.106 Y80.181 E24.91844
G1 X139.633 Y80.46 E24.93827
G1 X140.014 Y80.684 E24.95297
G1 X140.225 Y80.814 E24.96121
G1 X140.457 Y80.961 E24.97035
G1 X140.691 Y81.114 E24.97965
G1 X141.424 Y81.641 E25.00967
G1 X142.027 Y82.156 E25.03605
G1 X142.131 Y82.252 E25.04076
G1 X142.767 Y82.893 E25.07079
G1 X143.344 Y83.588 E25.10083
G1 X143.737 Y84.145 E25.12351
G1 X144.405 Y85.163 E25.164
G1 X144.676 Y85.59 E25.18083
G1 X146.072 Y87.653 E25.26367
G1 X147.559 Y89.723 E25.34845
G1 X149.106 Y91.752 E25.43331
G1 X150.703 Y93.729 E25.51784
G1 X151.586 Y94.777 E25.56342
G1 X152.112 Y95.389 E25.59026
G1 X152.669 Y96.1 E25.6203
G1 X153.161 Y96.857 E25.65033
G1 X153.542 Y97.566 E25.6771
G1 X154.092 Y98.694 E25.71884
G1 X155.285 Y101.057 E25.80688
G1 X156.488 Y103.28 E25.89095
G1 X157.763 Y105.483 E25.97561
G1 X159.092 Y107.639 E26.05985
G1 X160.495 Y109.777 E26.1449
G1 X161.068 Y110.592 E26.17804
G1 X161.179 Y110.766 E26.1849
G1 X161.896 Y111.802 E26.2268
G1 X162.056 Y112.04 E26.23634
G1 X162.224 Y112.298 E26.24658
G1 X162.405 Y112.587 E26.25792
G1 X162.567 Y112.855 E26.26834
G1 X163 Y113.648 E26.29839
G1 X163.36 Y114.476 E26.32842
G1 X163.646 Y115.333 E26.35847
G1 X163.856 Y116.211 E26.3885
G1 X163.986 Y117.105 E26.41854
G1 X164.03 Y117.719 E26.43902
G1 X164.04 Y118.081 E26.45106
G1 X164.048 Y118.779 E26.47428
G1 X164.047 Y132.531 E26.93167
G1 X164.037 Y133.261 E26.95596
G1 X163.985 Y134.162 E26.98597
G1 X163.853 Y135.056 E27.01603
G1 X163.642 Y135.934 E27.04606
G1 X163.355 Y136.79 E27.07609
G1 X162.993 Y137.618 E27.10615
G1 X162.56 Y138.41 E27.13617
G1 X162.058 Y139.161 E27.16621
