;FLAVOR:Marlin
;TIME:7150
;Filament used: 6.66327m
;Layer height: 0.28
;MINX:56.43
;MINY:32.5
;MINZ:0.28
;MAXX:156.429
;MAXY:202.499
;MAXZ:6.72
;Generated with Cura_SteamEngine 4.11.0
M140 S50
M105
M190 S50
M104 S200
M105
M109 S200
M82 ;absolute extrusion mode
; Ender 3 Custom Start G-code
G92 E0 ; Reset Extruder
G28 ; Home all axes
G1 Z2.0 F3000 ; Move Z Axis up little to prevent scratching of Heat Bed
G1 X0.1 Y20 Z0.3 F5000.0 ; Move to start position
G1 X0.1 Y200.0 Z0.3 F1500.0 E15 ; Draw the first line
G1 X0.4 Y200.0 Z0.3 F5000.0 ; Move to side a little
G1 X0.4 Y20 Z0.3 F1500.0 E30 ; Draw the second line
G92 E0 ; Reset Extruder
G1 Z2.0 F3000 ; Move Z Axis up little to prevent scratching of Heat Bed
G1 X5 Y20 Z0.3 F5000.0 ; Move over to prevent blob squish
G92 E0
G92 E0
G1 F2700 E-5
;LAYER_COUNT:24
;LAYER:0
M107
G0 F6000 X60.389 Y41.26 Z0.28
;TYPE:SKIRT
G1 F2700 E0
G1 F1200 X60.864 Y40.63 E0.03674
G1 X61.089 Y40.341 E0.05379
G1 X61.345 Y40.024 E0.07277
G1 X61.983 Y39.301 E0.11767
G1 X62.544 Y38.719 E0.15531
G1 X62.798 Y38.465 E0.17203
G1 X63.082 Y38.189 E0.19047
G1 X63.804 Y37.546 E0.23549
G1 X64.438 Y37.03 E0.27356
G1 X64.738 Y36.794 E0.29133
G1 X65.056 Y36.553 E0.30991
G1 X65.838 Y36.012 E0.35419
G1 X66.489 Y35.602 E0.39001
G1 X66.785 Y35.422 E0.40614
G1 X67.16 Y35.202 E0.42639
G1 X68.03 Y34.743 E0.47219
G1 X68.748 Y34.404 E0.50916
G1 X69.073 Y34.257 E0.52577
G1 X69.454 Y34.092 E0.54511
G1 X70.38 Y33.739 E0.59125
G1 X71.129 Y33.492 E0.62797
G1 X71.446 Y33.393 E0.64344
G1 X71.854 Y33.272 E0.66325
G1 X72.805 Y33.035 E0.70889
G1 X73.558 Y32.883 E0.74466
G1 X73.897 Y32.821 E0.76071
G1 X74.316 Y32.75 E0.7805
G1 X75.296 Y32.629 E0.82648
G1 X76.088 Y32.567 E0.86347
G1 X76.419 Y32.546 E0.87891
G1 X76.815 Y32.527 E0.89737
G1 X77.17 Y32.515 E0.91391
G1 X78.066 Y32.501 E0.95564
G1 X134.722 Y32.5 E3.59378
G1 X135.494 Y32.51 E3.62973
G1 X135.813 Y32.52 E3.64459
G1 X136.567 Y32.553 E3.67973
G1 X136.905 Y32.573 E3.6955
G1 X137.374 Y32.608 E3.7174
G1 X138.339 Y32.723 E3.76265
G1 X139.142 Y32.855 E3.80055
G1 X139.494 Y32.918 E3.8172
G1 X139.893 Y32.997 E3.83614
G1 X140.843 Y33.23 E3.88168
G1 X141.582 Y33.446 E3.91753
G1 X141.914 Y33.549 E3.93372
G1 X142.33 Y33.685 E3.9541
G1 X143.247 Y34.03 E3.99972
G1 X143.963 Y34.337 E4.036
G1 X144.263 Y34.471 E4.0513
G1 X144.631 Y34.642 E4.07019
G1 X145.512 Y35.101 E4.11645
G1 X146.235 Y35.52 E4.15536
G1 X146.536 Y35.701 E4.17171
G1 X146.865 Y35.906 E4.18976
G1 X147.68 Y36.466 E4.23581
G1 X148.302 Y36.936 E4.27211
G1 X148.584 Y37.156 E4.28876
G1 X148.907 Y37.417 E4.3081
G1 X149.635 Y38.061 E4.35336
G1 X150.223 Y38.629 E4.39143
G1 X150.466 Y38.871 E4.4074
G1 X150.752 Y39.165 E4.4265
G1 X151.407 Y39.902 E4.47241
G1 X151.886 Y40.492 E4.5078
G1 X152.1 Y40.764 E4.52391
G1 X152.361 Y41.107 E4.54398
G1 X152.911 Y41.899 E4.58888
G1 X153.333 Y42.568 E4.62571
G1 X153.52 Y42.876 E4.64249
G1 X153.728 Y43.231 E4.66165
G1 X154.187 Y44.102 E4.70749
G1 X154.532 Y44.834 E4.74517
G1 X154.677 Y45.155 E4.76157
G1 X154.838 Y45.527 E4.78045
G1 X155.185 Y46.438 E4.82584
G1 X155.432 Y47.184 E4.86243
G1 X155.536 Y47.513 E4.8785
G1 X155.652 Y47.904 E4.89749
G1 X155.887 Y48.848 E4.94279
G1 X156.053 Y49.667 E4.9817
G1 X156.122 Y50.044 E4.99955
G1 X156.185 Y50.422 E5.01739
G1 X156.302 Y51.373 E5.06201
G1 X156.362 Y52.141 E5.09788
G1 X156.382 Y52.466 E5.11304
G1 X156.402 Y52.879 E5.13229
G1 X156.414 Y53.24 E5.14911
G1 X156.429 Y54.309 E5.19889
G1 X156.428 Y188.951 E11.46839
G1 X156.418 Y189.649 E11.5009
G1 X156.372 Y190.511 E11.54109
G1 X156.357 Y190.672 E11.54862
G1 X156.29 Y191.231 E11.57484
G1 X156.242 Y191.562 E11.59041
G1 X156.068 Y192.483 E11.63405
G1 X155.816 Y193.387 E11.67775
G1 X155.598 Y193.996 E11.70787
G1 X155.435 Y194.412 E11.72868
G1 X155.263 Y194.827 E11.7496
G1 X154.856 Y195.671 E11.79323
G1 X154.378 Y196.479 E11.83694
G1 X154 Y197.023 E11.86779
G1 X153.621 Y197.532 E11.89734
G1 X153.567 Y197.602 E11.90145
G1 X152.963 Y198.319 E11.94511
G1 X152.3 Y198.983 E11.9888
G1 X151.697 Y199.498 E12.02572
G1 X151.333 Y199.787 E12.04737
G1 X150.931 Y200.091 E12.07083
G1 X150.151 Y200.612 E12.11451
G1 X149.329 Y201.064 E12.15819
G1 X148.836 Y201.294 E12.18352
G1 X148.462 Y201.457 E12.20252
G1 X148.096 Y201.609 E12.22098
G1 X147.212 Y201.923 E12.26466
G1 X146.305 Y202.161 E12.30832
G1 X145.612 Y202.288 E12.34113
G1 X145.154 Y202.357 E12.36269
G1 X144.685 Y202.418 E12.38472
G1 X143.775 Y202.485 E12.42721
G1 X143.527 Y202.493 E12.43876
G1 X143.172 Y202.499 E12.45529
G1 X69.978 Y202.499 E15.86351
G1 X69.28 Y202.489 E15.89602
G1 X68.424 Y202.443 E15.93593
G1 X68.262 Y202.428 E15.94351
G1 X67.684 Y202.359 E15.97061
G1 X67.349 Y202.31 E15.98638
G1 X66.428 Y202.135 E16.03003
G1 X65.525 Y201.882 E16.0737
G1 X64.92 Y201.665 E16.10363
G1 X64.533 Y201.513 E16.12299
G1 X64.109 Y201.336 E16.14438
G1 X63.264 Y200.929 E16.18805
G1 X62.456 Y200.452 E16.23175
G1 X61.904 Y200.068 E16.26306
G1 X61.564 Y199.816 E16.28276
G1 X61.293 Y199.609 E16.29864
G1 X60.577 Y199.003 E16.34232
G1 X59.916 Y198.338 E16.38598
G1 X59.43 Y197.769 E16.42082
G1 X59.177 Y197.451 E16.43975
G1 X58.902 Y197.09 E16.46088
G1 X58.837 Y197.001 E16.46601
G1 X58.317 Y196.22 E16.5097
G1 X57.865 Y195.399 E16.55334
G1 X57.642 Y194.921 E16.5779
G1 X57.471 Y194.53 E16.59777
G1 X57.296 Y194.107 E16.61909
G1 X56.987 Y193.221 E16.66278
G1 X56.754 Y192.313 E16.70643
G1 X56.641 Y191.683 E16.73623
G1 X56.572 Y191.225 E16.7578
G1 X56.511 Y190.756 E16.77982
G1 X56.443 Y189.824 E16.82334
G1 X56.435 Y189.56 E16.83564
G1 X56.43 Y189.227 E16.85114
G1 X56.43 Y54.048 E23.14564
G1 X56.439 Y53.424 E23.1747
G1 X56.449 Y53.091 E23.19022
G1 X56.482 Y52.354 E23.22457
G1 X56.501 Y52.031 E23.23963
G1 X56.536 Y51.56 E23.26163
G1 X56.652 Y50.589 E23.30716
G1 X56.783 Y49.793 E23.34473
G1 X56.842 Y49.467 E23.36015
G1 X56.922 Y49.058 E23.37956
G1 X57.16 Y48.08 E23.42643
G1 X57.371 Y47.359 E23.46141
G1 X57.47 Y47.038 E23.47705
G1 X57.607 Y46.618 E23.49762
G1 X57.958 Y45.688 E23.54391
G1 X58.281 Y44.936 E23.58202
G1 X58.416 Y44.634 E23.59742
G1 X58.585 Y44.271 E23.61606
G1 X59.049 Y43.383 E23.66272
G1 X59.444 Y42.704 E23.6993
G1 X59.617 Y42.417 E23.7149
G1 X59.837 Y42.064 E23.73427
G1 X60.389 Y41.26 E23.77968
G0 F6000 X60.708 Y41.501
G1 F1200 X61.183 Y40.871 E23.81642
G1 X61.4 Y40.592 E23.83288
G1 X61.656 Y40.275 E23.85185
G1 X62.271 Y39.579 E23.8951
G1 X62.832 Y38.997 E23.93274
G1 X63.076 Y38.751 E23.94887
G1 X63.36 Y38.475 E23.96731
G1 X64.057 Y37.856 E24.01072
G1 X64.691 Y37.34 E24.04878
G1 X64.98 Y37.113 E24.0659
G1 X65.298 Y36.872 E24.08447
G1 X66.051 Y36.351 E24.12711
G1 X66.702 Y35.941 E24.16294
G1 X66.987 Y35.767 E24.17848
G1 X67.362 Y35.547 E24.19873
G1 X68.2 Y35.105 E24.24285
G1 X68.918 Y34.766 E24.27982
G1 X69.232 Y34.624 E24.29586
G1 X69.613 Y34.459 E24.3152
G1 X70.505 Y34.119 E24.35965
G1 X71.254 Y33.872 E24.39637
G1 X71.56 Y33.776 E24.41131
G1 X71.968 Y33.655 E24.43112
G1 X72.885 Y33.428 E24.47511
G1 X73.638 Y33.276 E24.51088
G1 X73.964 Y33.215 E24.52632
G1 X74.383 Y33.144 E24.54611
G1 X75.327 Y33.027 E24.5904
G1 X76.119 Y32.965 E24.6274
G1 X76.438 Y32.945 E24.64228
G1 X76.834 Y32.926 E24.66074
G1 X77.176 Y32.915 E24.67667
G1 X78.238 Y32.9 E24.72613
G1 X134.722 Y32.9 E27.35626
G1 X135.488 Y32.91 E27.39193
G1 X135.795 Y32.919 E27.40623
G1 X136.549 Y32.952 E27.44138
G1 X136.875 Y32.971 E27.45658
G1 X137.344 Y33.006 E27.47848
G1 X138.274 Y33.117 E27.52209
G1 X139.077 Y33.249 E27.55999
G1 X139.417 Y33.311 E27.57608
G1 X139.816 Y33.39 E27.59502
G1 X140.731 Y33.614 E27.63888
G1 X141.47 Y33.83 E27.67473
G1 X141.79 Y33.929 E27.69033
G1 X142.206 Y34.065 E27.71071
G1 X143.089 Y34.398 E27.75465
G1 X143.805 Y34.705 E27.79093
G1 X144.095 Y34.834 E27.80571
G1 X144.463 Y35.005 E27.8246
G1 X145.311 Y35.447 E27.86913
G1 X146.034 Y35.866 E27.90804
G1 X146.325 Y36.041 E27.92385
G1 X146.654 Y36.246 E27.9419
G1 X147.438 Y36.785 E27.98621
G1 X148.06 Y37.255 E28.02251
G1 X148.332 Y37.467 E28.03857
G1 X148.655 Y37.728 E28.0579
G1 X149.358 Y38.349 E28.10158
G1 X149.946 Y38.917 E28.13965
G1 X150.179 Y39.15 E28.15499
G1 X150.465 Y39.444 E28.17409
G1 X151.096 Y40.154 E28.21832
G1 X151.575 Y40.744 E28.25371
G1 X151.782 Y41.006 E28.26926
G1 X152.043 Y41.349 E28.28933
G1 X152.572 Y42.113 E28.3326
G1 X152.994 Y42.782 E28.36943
G1 X153.175 Y43.078 E28.38558
G1 X153.383 Y43.433 E28.40474
G1 X153.825 Y44.273 E28.44894
G1 X154.17 Y45.005 E28.48662
G1 X154.31 Y45.314 E28.50242
G1 X154.471 Y45.686 E28.52129
G1 X154.806 Y46.564 E28.56505
G1 X155.053 Y47.31 E28.60164
G1 X155.152 Y47.627 E28.61711
G1 X155.268 Y48.018 E28.6361
G1 X155.495 Y48.927 E28.67972
G1 X155.661 Y49.746 E28.71863
G1 X155.728 Y50.109 E28.73582
G1 X155.791 Y50.487 E28.75367
G1 X155.903 Y51.404 E28.79668
G1 X155.963 Y52.172 E28.83255
G1 X155.983 Y52.485 E28.84716
G1 X156.003 Y52.898 E28.86641
G1 X156.014 Y53.246 E28.88262
G1 X156.029 Y54.309 E28.93213
G1 X156.028 Y188.945 E35.20134
G1 X156.018 Y189.643 E35.23385
G1 X155.973 Y190.474 E35.2726
G1 X155.958 Y190.635 E35.28013
G1 X155.894 Y191.173 E35.30536
G1 X155.846 Y191.504 E35.32093
G1 X155.675 Y192.409 E35.36382
G1 X155.425 Y193.295 E35.40668
G1 X155.225 Y193.85 E35.43415
G1 X155.062 Y194.266 E35.45496
G1 X154.896 Y194.668 E35.47521
G1 X154.495 Y195.497 E35.51809
G1 X154.024 Y196.289 E35.561
G1 X153.679 Y196.785 E35.58913
G1 X153.304 Y197.288 E35.61835
G1 X153.25 Y197.358 E35.62246
G1 X152.656 Y198.061 E35.66532
G1 X152.004 Y198.711 E35.70819
G1 X151.448 Y199.185 E35.74221
G1 X151.084 Y199.474 E35.76385
G1 X150.695 Y199.768 E35.78656
G1 X149.929 Y200.279 E35.82943
G1 X149.121 Y200.721 E35.87232
G1 X148.676 Y200.927 E35.89515
G1 X148.302 Y201.09 E35.91415
G1 X147.946 Y201.238 E35.9321
G1 X147.078 Y201.546 E35.97499
G1 X146.187 Y201.777 E36.01785
G1 X145.552 Y201.893 E36.0479
G1 X145.094 Y201.962 E36.06947
G1 X144.639 Y202.021 E36.09084
G1 X143.762 Y202.085 E36.13178
G1 X143.514 Y202.093 E36.14334
G1 X143.172 Y202.099 E36.15926
G1 X69.984 Y202.099 E39.5672
G1 X69.286 Y202.089 E39.59971
G1 X68.461 Y202.045 E39.63818
G1 X68.299 Y202.03 E39.64575
G1 X67.742 Y201.963 E39.67188
G1 X67.407 Y201.914 E39.68764
G1 X66.503 Y201.742 E39.73049
G1 X65.617 Y201.491 E39.77337
G1 X65.066 Y201.292 E39.80065
G1 X64.679 Y201.14 E39.82001
G1 X64.267 Y200.969 E39.84078
G1 X63.438 Y200.569 E39.88364
G1 X62.646 Y200.098 E39.92655
G1 X62.142 Y199.747 E39.95515
G1 X61.802 Y199.495 E39.97485
G1 X61.538 Y199.293 E39.99033
G1 X60.836 Y198.697 E40.03321
G1 X60.188 Y198.043 E40.07608
G1 X59.743 Y197.519 E40.10809
G1 X59.49 Y197.201 E40.12702
G1 X59.225 Y196.854 E40.14735
G1 X59.16 Y196.765 E40.15248
G1 X58.65 Y195.998 E40.19537
G1 X58.208 Y195.191 E40.23821
G1 X58.008 Y194.76 E40.26034
G1 X57.837 Y194.369 E40.28021
G1 X57.667 Y193.959 E40.30088
G1 X57.365 Y193.089 E40.34376
G1 X57.139 Y192.197 E40.38661
G1 X57.036 Y191.623 E40.41376
G1 X56.967 Y191.165 E40.43533
G1 X56.908 Y190.71 E40.45669
G1 X56.843 Y189.812 E40.49862
G1 X56.835 Y189.548 E40.51091
G1 X56.83 Y189.227 E40.52586
G1 X56.83 Y54.054 E46.82008
G1 X56.839 Y53.43 E46.84914
G1 X56.849 Y53.109 E46.8641
G1 X56.882 Y52.372 E46.89845
G1 X56.9 Y52.06 E46.913
G1 X56.935 Y51.589 E46.93499
G1 X57.047 Y50.654 E46.97884
G1 X57.178 Y49.858 E47.01641
G1 X57.234 Y49.544 E47.03126
G1 X57.314 Y49.135 E47.05066
G1 X57.544 Y48.193 E47.09582
G1 X57.755 Y47.472 E47.1308
G1 X57.851 Y47.162 E47.14591
G1 X57.988 Y46.742 E47.16648
G1 X58.325 Y45.846 E47.21105
G1 X58.648 Y45.094 E47.24916
G1 X58.778 Y44.803 E47.264
G1 X58.947 Y44.44 E47.28265
G1 X59.395 Y43.584 E47.32764
G1 X59.79 Y42.905 E47.36422
G1 X59.956 Y42.628 E47.37925
G1 X60.176 Y42.275 E47.39862
G1 X60.708 Y41.501 E47.44235
G0 F6000 X61.028 Y41.741
G1 F1200 X61.503 Y41.111 E47.47909
G1 X61.712 Y40.844 E47.49488
G1 X61.968 Y40.527 E47.51385
G1 X62.559 Y39.856 E47.55549
G1 X63.12 Y39.274 E47.59313
G1 X63.355 Y39.038 E47.60864
G1 X63.639 Y38.762 E47.62708
G1 X64.309 Y38.166 E47.66883
G1 X64.943 Y37.65 E47.7069
G1 X65.221 Y37.432 E47.72335
G1 X65.539 Y37.191 E47.74193
G1 X66.264 Y36.689 E47.78299
G1 X66.915 Y36.279 E47.81881
G1 X67.19 Y36.112 E47.8338
G1 X67.565 Y35.892 E47.85404
G1 X68.371 Y35.466 E47.89649
G1 X69.089 Y35.127 E47.93346
G1 X69.39 Y34.991 E47.94884
G1 X69.771 Y34.826 E47.96818
G1 X70.631 Y34.499 E48.01102
G1 X71.38 Y34.252 E48.04774
G1 X71.674 Y34.16 E48.06209
G1 X72.082 Y34.039 E48.0819
G1 X72.964 Y33.82 E48.12422
G1 X73.717 Y33.668 E48.15999
G1 X74.031 Y33.609 E48.17487
G1 X74.45 Y33.538 E48.19465
G1 X75.358 Y33.426 E48.23726
G1 X76.15 Y33.364 E48.27425
G1 X76.457 Y33.345 E48.28857
G1 X76.853 Y33.326 E48.30703
G1 X77.183 Y33.315 E48.32241
G1 X78.238 Y33.3 E48.37154
G1 X134.722 Y33.3 E51.00167
G1 X135.482 Y33.31 E51.03706
G1 X135.778 Y33.319 E51.05085
G1 X136.532 Y33.352 E51.08599
G1 X136.845 Y33.37 E51.10059
G1 X137.314 Y33.405 E51.12249
G1 X138.21 Y33.512 E51.16451
G1 X139.013 Y33.644 E51.2024
G1 X139.339 Y33.703 E51.21783
G1 X139.738 Y33.782 E51.23677
G1 X140.619 Y33.998 E51.279
G1 X141.358 Y34.214 E51.31486
G1 X141.666 Y34.309 E51.32986
G1 X142.082 Y34.445 E51.35024
G1 X142.932 Y34.765 E51.39253
G1 X143.648 Y35.072 E51.42881
G1 X143.926 Y35.197 E51.443
G1 X144.294 Y35.368 E51.4619
G1 X145.11 Y35.793 E51.50474
G1 X145.833 Y36.212 E51.54365
G1 X146.113 Y36.38 E51.55886
G1 X146.442 Y36.585 E51.57691
G1 X147.197 Y37.104 E51.61957
G1 X147.819 Y37.574 E51.65587
G1 X148.081 Y37.778 E51.67133
G1 X148.404 Y38.039 E51.69067
G1 X149.08 Y38.637 E51.73269
G1 X149.668 Y39.205 E51.77076
G1 X149.892 Y39.429 E51.78551
G1 X150.178 Y39.723 E51.80461
G1 X150.786 Y40.406 E51.84719
G1 X151.265 Y40.996 E51.88258
G1 X151.463 Y41.248 E51.8975
G1 X151.724 Y41.591 E51.91757
G1 X152.234 Y42.326 E51.95923
G1 X152.656 Y42.995 E51.99606
G1 X152.83 Y43.281 E52.01165
G1 X153.038 Y43.636 E52.0308
G1 X153.464 Y44.443 E52.0733
G1 X153.809 Y45.175 E52.11098
G1 X153.943 Y45.473 E52.12619
G1 X154.104 Y45.845 E52.14507
G1 X154.426 Y46.69 E52.18717
G1 X154.673 Y47.436 E52.22376
G1 X154.769 Y47.741 E52.23865
G1 X154.885 Y48.132 E52.25764
G1 X155.103 Y49.007 E52.29963
G1 X155.269 Y49.826 E52.33854
G1 X155.333 Y50.175 E52.35507
G1 X155.396 Y50.553 E52.37291
G1 X155.504 Y51.436 E52.41433
G1 X155.564 Y52.204 E52.4502
G1 X155.583 Y52.505 E52.46425
G1 X155.603 Y52.918 E52.4835
G1 X155.614 Y53.252 E52.49906
G1 X155.629 Y54.309 E52.54828
G1 X155.628 Y188.939 E58.81722
G1 X155.618 Y189.637 E58.84973
G1 X155.575 Y190.437 E58.88703
G1 X155.56 Y190.598 E58.89456
G1 X155.498 Y191.116 E58.91885
G1 X155.45 Y191.447 E58.93443
G1 X155.281 Y192.334 E58.97647
G1 X155.035 Y193.203 E59.01853
G1 X154.853 Y193.704 E59.04335
G1 X154.69 Y194.12 E59.06415
G1 X154.528 Y194.51 E59.08382
G1 X154.135 Y195.323 E59.12586
G1 X153.671 Y196.098 E59.16792
G1 X153.357 Y196.547 E59.19344
G1 X153.109 Y196.882 E59.21285
G1 X152.933 Y197.113 E59.22637
G1 X152.35 Y197.803 E59.26843
G1 X151.709 Y198.439 E59.31048
G1 X151.199 Y198.871 E59.3416
G1 X150.835 Y199.16 E59.36324
G1 X150.459 Y199.445 E59.38521
G1 X149.707 Y199.945 E59.42726
G1 X148.516 Y200.561 E59.4897
G1 X148.142 Y200.724 E59.50869
G1 X147.796 Y200.868 E59.52615
G1 X146.944 Y201.169 E59.56822
G1 X146.07 Y201.393 E59.61023
G1 X145.493 Y201.497 E59.63753
G1 X145.035 Y201.566 E59.6591
G1 X144.593 Y201.623 E59.67985
G1 X143.749 Y201.686 E59.71926
G1 X143.501 Y201.694 E59.73082
G1 X143.172 Y201.699 E59.74614
G1 X69.99 Y201.699 E63.1538
G1 X69.292 Y201.689 E63.1863
G1 X68.498 Y201.647 E63.22333
G1 X68.336 Y201.632 E63.2309
G1 X67.8 Y201.568 E63.25604
G1 X67.465 Y201.519 E63.2718
G1 X66.578 Y201.348 E63.31387
G1 X65.709 Y201.101 E63.35593
G1 X65.212 Y200.92 E63.38056
G1 X64.825 Y200.768 E63.39992
