;FLAVOR:Marlin
;TIME:7176
;Filament used: 7.12588m
;Layer height: 0.28
;MINX:67.501
;MINY:31.8
;MINZ:0.28
;MAXX:167.5
;MAXY:203.199
;MAXZ:10.08
;Generated with Cura_SteamEngine 4.11.0
M140 S50
M105
M190 S50
M104 S200
M105
M109 S200
M82 ;absolute extrusion mode
; Ender 3 Custom Start G-code
G92 E0 ; Reset Extruder
G28 ; Home all axes
G1 Z2.0 F3000 ; Move Z Axis up little to prevent scratching of Heat Bed
G1 X0.1 Y20 Z0.3 F5000.0 ; Move to start position
G1 X0.1 Y200.0 Z0.3 F1500.0 E15 ; Draw the first line
G1 X0.4 Y200.0 Z0.3 F5000.0 ; Move to side a little
G1 X0.4 Y20 Z0.3 F1500.0 E30 ; Draw the second line
G92 E0 ; Reset Extruder
G1 Z2.0 F3000 ; Move Z Axis up little to prevent scratching of Heat Bed
G1 X5 Y20 Z0.3 F5000.0 ; Move over to prevent blob squish
G92 E0
G92 E0
G1 F2700 E-5
;LAYER_COUNT:36
;LAYER:0
M107
G0 F6000 X70.503 Y42.421 Z0.28
;TYPE:SKIRT
G1 F2700 E0
G1 F1200 X70.684 Y42.121 E0.01631
G1 X70.901 Y41.773 E0.03541
G1 X71.459 Y40.96 E0.08133
G1 X71.948 Y40.313 E0.11909
G1 X72.158 Y40.045 E0.13494
G1 X72.415 Y39.726 E0.15402
G1 X73.065 Y38.989 E0.19978
G1 X73.615 Y38.419 E0.23666
G1 X73.864 Y38.17 E0.25306
G1 X74.151 Y37.891 E0.2717
G1 X74.876 Y37.245 E0.31691
G1 X75.509 Y36.73 E0.35491
G1 X75.794 Y36.506 E0.37179
G1 X76.111 Y36.265 E0.39033
G1 X76.899 Y35.718 E0.435
G1 X77.568 Y35.296 E0.47183
G1 X77.876 Y35.109 E0.48861
G1 X78.231 Y34.901 E0.50777
G1 X79.102 Y34.442 E0.55361
G1 X79.834 Y34.097 E0.59129
G1 X80.155 Y33.952 E0.60769
G1 X80.527 Y33.791 E0.62657
G1 X81.451 Y33.439 E0.67261
G1 X82.2 Y33.192 E0.70933
G1 X82.523 Y33.091 E0.72509
G1 X83.682 Y32.748 E0.78137
G1 X84.452 Y32.533 E0.8186
G1 X85.418 Y32.251 E0.86546
G1 X86.703 Y31.959 E0.92682
G1 X87.633 Y31.844 E0.97045
G1 X88.201 Y31.813 E0.99694
G1 X88.52 Y31.804 E1.0118
G1 X88.83 Y31.8 E1.02624
G1 X145.793 Y31.8 E3.67867
G1 X146.652 Y31.811 E3.71867
G1 X147.588 Y31.864 E3.76233
G1 X148.181 Y31.94 E3.79017
G1 X149.427 Y32.206 E3.84949
G1 X150.11 Y32.394 E3.88248
G1 X150.432 Y32.498 E3.89823
G1 X152.63 Y33.139 E4.00485
G1 X152.971 Y33.244 E4.02146
G1 X153.402 Y33.385 E4.04258
G1 X154.317 Y33.73 E4.08811
G1 X155.04 Y34.04 E4.12474
G1 X155.35 Y34.179 E4.14056
G1 X155.73 Y34.356 E4.16008
G1 X156.605 Y34.812 E4.20602
G1 X157.279 Y35.203 E4.24231
G1 X157.579 Y35.384 E4.25862
G1 X157.927 Y35.601 E4.27772
G1 X158.74 Y36.159 E4.32363
G1 X159.387 Y36.648 E4.3614
G1 X159.652 Y36.856 E4.37708
G1 X159.97 Y37.112 E4.39609
G1 X160.71 Y37.764 E4.44202
G1 X161.281 Y38.315 E4.47897
G1 X161.53 Y38.564 E4.49536
G1 X161.809 Y38.851 E4.514
G1 X162.455 Y39.576 E4.55922
G1 X162.97 Y40.209 E4.59722
G1 X163.194 Y40.494 E4.6141
G1 X163.435 Y40.811 E4.63264
G1 X163.982 Y41.599 E4.6773
G1 X164.404 Y42.268 E4.71414
G1 X164.591 Y42.576 E4.73091
G1 X164.799 Y42.931 E4.75007
G1 X165.258 Y43.802 E4.79592
G1 X165.603 Y44.534 E4.8336
G1 X165.745 Y44.848 E4.84964
G1 X165.905 Y45.217 E4.86837
G1 X166.26 Y46.148 E4.91477
G1 X166.508 Y46.9 E4.95164
G1 X166.607 Y47.217 E4.9671
G1 X166.728 Y47.625 E4.98692
G1 X166.965 Y48.576 E5.03256
G1 X167.117 Y49.329 E5.06833
G1 X167.178 Y49.66 E5.084
G1 X167.249 Y50.077 E5.1037
G1 X167.372 Y51.067 E5.15015
G1 X167.434 Y51.861 E5.18723
G1 X167.454 Y52.187 E5.20244
G1 X167.473 Y52.581 E5.22081
G1 X167.485 Y52.94 E5.23753
G1 X167.5 Y54.009 E5.28732
G1 X167.499 Y189.651 E11.60338
G1 X167.489 Y190.349 E11.63588
G1 X167.443 Y191.211 E11.67608
G1 X167.428 Y191.372 E11.68361
G1 X167.361 Y191.931 E11.70982
G1 X167.313 Y192.262 E11.7254
G1 X167.139 Y193.183 E11.76904
G1 X166.887 Y194.087 E11.81274
G1 X166.669 Y194.696 E11.84286
G1 X166.506 Y195.112 E11.86366
G1 X166.328 Y195.539 E11.8852
G1 X165.92 Y196.383 E11.92886
G1 X165.441 Y197.19 E11.97255
G1 X165.047 Y197.753 E12.00455
G1 X164.735 Y198.171 E12.02884
G1 X164.143 Y198.898 E12.0725
G1 X163.49 Y199.572 E12.11619
G1 X162.769 Y200.199 E12.16069
G1 X162.451 Y200.452 E12.17961
G1 X162.072 Y200.74 E12.20177
G1 X161.984 Y200.804 E12.20684
G1 X161.203 Y201.323 E12.2505
G1 X160.38 Y201.773 E12.29418
G1 X159.926 Y201.985 E12.31751
G1 X159.54 Y202.154 E12.33713
G1 X159.171 Y202.307 E12.35573
G1 X158.288 Y202.622 E12.39939
G1 X157.38 Y202.86 E12.4431
G1 X156.683 Y202.988 E12.47609
G1 X156.225 Y203.057 E12.49766
G1 X155.756 Y203.118 E12.51968
G1 X154.846 Y203.185 E12.56217
G1 X154.598 Y203.193 E12.57373
G1 X154.243 Y203.199 E12.59026
G1 X81.049 Y203.199 E15.99848
G1 X80.352 Y203.189 E16.03094
G1 X79.496 Y203.143 E16.07085
G1 X79.334 Y203.128 E16.07843
G1 X78.747 Y203.058 E16.10596
G1 X78.414 Y203.009 E16.12163
G1 X77.492 Y202.833 E16.16534
G1 X76.59 Y202.579 E16.20897
G1 X76.007 Y202.37 E16.23781
G1 X75.593 Y202.208 E16.25851
G1 X75.161 Y202.028 E16.2803
G1 X74.317 Y201.62 E16.32395
G1 X73.51 Y201.141 E16.36765
G1 X72.947 Y200.747 E16.39965
G1 X72.529 Y200.435 E16.42394
G1 X71.802 Y199.843 E16.46759
G1 X71.128 Y199.19 E16.51129
G1 X70.489 Y198.454 E16.55668
G1 X70.225 Y198.121 E16.57646
G1 X69.959 Y197.771 E16.59693
G1 X69.905 Y197.697 E16.6012
G1 X69.385 Y196.917 E16.64485
G1 X68.934 Y196.095 E16.68851
G1 X68.713 Y195.621 E16.71286
G1 X68.542 Y195.23 E16.73273
G1 X68.367 Y194.807 E16.75405
G1 X68.058 Y193.921 E16.79774
G1 X67.825 Y193.013 E16.84139
G1 X67.712 Y192.383 E16.8712
G1 X67.643 Y191.925 E16.89276
G1 X67.582 Y191.456 E16.91479
G1 X67.514 Y190.524 E16.9583
G1 X67.506 Y190.26 E16.9706
G1 X67.501 Y189.927 E16.9861
G1 X67.501 Y53.748 E23.32717
G1 X67.51 Y53.124 E23.35623
G1 X67.52 Y52.791 E23.37174
G1 X67.553 Y52.054 E23.40609
G1 X67.572 Y51.731 E23.42116
G1 X67.607 Y51.26 E23.44315
G1 X67.723 Y50.289 E23.48869
G1 X67.854 Y49.493 E23.52625
G1 X67.913 Y49.167 E23.54168
G1 X67.993 Y48.758 E23.56108
G1 X68.233 Y47.772 E23.60834
G1 X68.447 Y47.043 E23.64371
G1 X68.542 Y46.737 E23.65863
G1 X68.679 Y46.316 E23.67925
G1 X69.029 Y45.385 E23.72556
G1 X69.342 Y44.655 E23.76255
G1 X69.484 Y44.338 E23.77872
G1 X69.659 Y43.963 E23.79799
G1 X70.112 Y43.095 E23.84358
G1 X70.503 Y42.421 E23.87986
G0 F6000 X70.849 Y42.622
G1 F1200 X71.023 Y42.332 E23.89561
G1 X71.24 Y41.984 E23.91471
G1 X71.779 Y41.202 E23.95893
G1 X72.268 Y40.555 E23.9967
G1 X72.47 Y40.296 E24.01199
G1 X72.727 Y39.977 E24.03107
G1 X73.353 Y39.267 E24.07514
G1 X73.903 Y38.697 E24.11203
G1 X74.142 Y38.456 E24.12783
G1 X74.429 Y38.177 E24.14647
G1 X75.128 Y37.556 E24.19001
G1 X75.761 Y37.041 E24.228
G1 X76.036 Y36.825 E24.24429
G1 X76.353 Y36.584 E24.26283
G1 X77.113 Y36.057 E24.30589
G1 X77.782 Y35.635 E24.34272
G1 X78.078 Y35.454 E24.35888
G1 X78.433 Y35.246 E24.37804
G1 X79.273 Y34.804 E24.42224
G1 X80.005 Y34.459 E24.45992
G1 X80.314 Y34.319 E24.47571
G1 X80.686 Y34.158 E24.49459
G1 X81.576 Y33.819 E24.53894
G1 X82.325 Y33.572 E24.57566
G1 X82.637 Y33.475 E24.59087
G1 X83.959 Y33.085 E24.65505
G1 X84.594 Y32.908 E24.68575
G1 X85.53 Y32.635 E24.73115
G1 X86.768 Y32.353 E24.79027
G1 X87.682 Y32.241 E24.83315
G1 X88.212 Y32.213 E24.85786
G1 X88.531 Y32.204 E24.87272
G1 X88.83 Y32.2 E24.88665
G1 X145.793 Y32.2 E27.53908
G1 X146.646 Y32.211 E27.57881
G1 X147.565 Y32.264 E27.62167
G1 X148.12 Y32.335 E27.64772
G1 X149.321 Y32.592 E27.70491
G1 X150.004 Y32.78 E27.7379
G1 X150.321 Y32.882 E27.75341
G1 X152.518 Y33.523 E27.85997
G1 X152.847 Y33.624 E27.876
G1 X153.278 Y33.765 E27.89711
G1 X154.159 Y34.098 E27.94097
G1 X154.882 Y34.408 E27.9776
G1 X155.181 Y34.541 E27.99284
G1 X155.561 Y34.718 E28.01236
G1 X156.404 Y35.158 E28.05664
G1 X157.078 Y35.549 E28.09292
G1 X157.368 Y35.723 E28.10867
G1 X157.716 Y35.94 E28.12776
G1 X158.498 Y36.479 E28.17199
G1 X159.145 Y36.968 E28.20975
G1 X159.401 Y37.167 E28.22485
G1 X159.719 Y37.423 E28.24386
G1 X160.433 Y38.052 E28.28817
G1 X161.004 Y38.603 E28.32512
G1 X161.244 Y38.842 E28.34089
G1 X161.523 Y39.129 E28.35953
G1 X162.144 Y39.828 E28.40306
G1 X162.659 Y40.461 E28.44106
G1 X162.875 Y40.736 E28.45734
G1 X163.116 Y41.053 E28.47589
G1 X163.643 Y41.813 E28.51895
G1 X164.065 Y42.482 E28.55578
G1 X164.246 Y42.778 E28.57194
G1 X164.454 Y43.133 E28.5911
G1 X164.896 Y43.973 E28.6353
G1 X165.241 Y44.705 E28.67298
G1 X165.378 Y45.007 E28.68842
G1 X165.538 Y45.376 E28.70715
G1 X165.88 Y46.273 E28.75185
G1 X166.128 Y47.025 E28.78872
G1 X166.224 Y47.331 E28.80365
G1 X166.345 Y47.739 E28.82347
G1 X166.572 Y48.656 E28.86746
G1 X166.724 Y49.409 E28.90323
G1 X166.784 Y49.727 E28.91829
G1 X166.855 Y50.144 E28.93799
G1 X166.973 Y51.098 E28.98275
G1 X167.035 Y51.892 E29.01984
G1 X167.055 Y52.206 E29.03449
G1 X167.074 Y52.6 E29.05285
G1 X167.085 Y52.946 E29.06897
G1 X167.1 Y54.009 E29.11848
G1 X167.099 Y189.645 E35.43426
G1 X167.089 Y190.343 E35.46676
G1 X167.044 Y191.174 E35.50551
G1 X167.029 Y191.335 E35.51304
G1 X166.965 Y191.873 E35.53827
G1 X166.917 Y192.204 E35.55385
G1 X166.746 Y193.109 E35.59673
G1 X166.496 Y193.995 E35.6396
G1 X166.296 Y194.55 E35.66707
G1 X166.133 Y194.966 E35.68787
G1 X165.961 Y195.38 E35.70875
G1 X165.56 Y196.209 E35.75163
G1 X165.087 Y196.999 E35.7945
G1 X164.727 Y197.513 E35.82372
G1 X164.415 Y197.931 E35.84801
G1 X163.832 Y198.645 E35.89093
G1 X163.19 Y199.305 E35.93381
G1 X162.519 Y199.886 E35.97514
G1 X162.201 Y200.139 E35.99406
G1 X161.837 Y200.417 E36.01539
G1 X161.749 Y200.481 E36.02045
G1 X160.981 Y200.989 E36.06333
G1 X159.765 Y201.618 E36.12708
G1 X159.379 Y201.787 E36.1467
G1 X159.021 Y201.937 E36.16477
G1 X158.153 Y202.245 E36.20766
G1 X157.262 Y202.476 E36.25052
G1 X156.623 Y202.593 E36.28077
G1 X156.165 Y202.662 E36.30234
G1 X155.71 Y202.721 E36.3237
G1 X154.833 Y202.785 E36.36465
G1 X154.585 Y202.793 E36.3762
G1 X154.243 Y202.799 E36.39213
G1 X81.055 Y202.799 E39.80007
G1 X80.358 Y202.789 E39.83253
G1 X79.533 Y202.745 E39.871
G1 X79.371 Y202.73 E39.87857
G1 X78.805 Y202.662 E39.90512
G1 X78.472 Y202.613 E39.92079
G1 X77.568 Y202.44 E39.96365
G1 X76.682 Y202.188 E40.00654
G1 X76.152 Y201.997 E40.03277
G1 X75.738 Y201.835 E40.05347
G1 X75.32 Y201.661 E40.07456
G1 X74.491 Y201.26 E40.11744
G1 X73.701 Y200.787 E40.16031
G1 X73.187 Y200.427 E40.18953
G1 X72.769 Y200.115 E40.21382
G1 X72.055 Y199.532 E40.25674
G1 X71.395 Y198.89 E40.29962
G1 X70.803 Y198.205 E40.34177
G1 X70.539 Y197.872 E40.36156
G1 X70.282 Y197.535 E40.3813
G1 X70.228 Y197.461 E40.38556
G1 X69.719 Y196.695 E40.42839
G1 X69.277 Y195.887 E40.47127
G1 X69.079 Y195.46 E40.49319
G1 X68.908 Y195.069 E40.51306
G1 X68.738 Y194.659 E40.53373
G1 X68.436 Y193.789 E40.57661
G1 X68.21 Y192.897 E40.61946
G1 X68.107 Y192.323 E40.64661
G1 X68.038 Y191.865 E40.66818
G1 X67.979 Y191.41 E40.68954
G1 X67.914 Y190.512 E40.73147
G1 X67.906 Y190.248 E40.74377
G1 X67.901 Y189.927 E40.75871
G1 X67.901 Y53.754 E47.0995
G1 X67.91 Y53.13 E47.12856
G1 X67.92 Y52.809 E47.14351
G1 X67.953 Y52.072 E47.17787
G1 X67.971 Y51.76 E47.19242
G1 X68.006 Y51.289 E47.21441
G1 X68.118 Y50.354 E47.25826
G1 X68.249 Y49.558 E47.29582
G1 X68.305 Y49.244 E47.31067
G1 X68.385 Y48.835 E47.33008
G1 X68.617 Y47.884 E47.37566
G1 X68.831 Y47.155 E47.41104
G1 X68.922 Y46.861 E47.42537
G1 X69.059 Y46.44 E47.44598
G1 X69.397 Y45.543 E47.49062
G1 X69.71 Y44.813 E47.5276
G1 X69.846 Y44.507 E47.5432
G1 X70.021 Y44.132 E47.56247
G1 X70.458 Y43.296 E47.60639
G1 X70.849 Y42.622 E47.64267
G0 F6000 X71.195 Y42.823
G1 F1200 X71.363 Y42.544 E47.65784
G1 X71.58 Y42.196 E47.67694
G1 X72.098 Y41.443 E47.71949
G1 X72.587 Y40.796 E47.75726
G1 X72.781 Y40.547 E47.77196
G1 X73.038 Y40.228 E47.79103
G1 X73.641 Y39.544 E47.83349
G1 X74.191 Y38.974 E47.87037
G1 X74.421 Y38.743 E47.88555
G1 X74.708 Y38.464 E47.90419
G1 X75.381 Y37.866 E47.94611
G1 X76.014 Y37.351 E47.98411
G1 X76.278 Y37.143 E47.99976
G1 X76.595 Y36.902 E48.0183
G1 X77.326 Y36.395 E48.05973
G1 X77.995 Y35.973 E48.09656
G1 X78.281 Y35.799 E48.11215
G1 X78.636 Y35.591 E48.1313
G1 X79.443 Y35.165 E48.1738
G1 X80.175 Y34.82 E48.21148
G1 X80.473 Y34.686 E48.22669
G1 X80.845 Y34.525 E48.24557
G1 X81.702 Y34.199 E48.28826
G1 X82.451 Y33.952 E48.32498
G1 X82.75 Y33.858 E48.33958
G1 X84.066 Y33.47 E48.40347
G1 X84.736 Y33.283 E48.43586
G1 X85.642 Y33.019 E48.4798
G1 X86.834 Y32.748 E48.53672
G1 X87.731 Y32.639 E48.57879
G1 X88.223 Y32.613 E48.60174
G1 X88.542 Y32.604 E48.6166
G1 X88.83 Y32.6 E48.63001
G1 X145.793 Y32.6 E51.28244
G1 X146.64 Y32.611 E51.32189
G1 X147.542 Y32.664 E51.36396
G1 X148.059 Y32.731 E51.38823
G1 X149.215 Y32.978 E51.44328
G1 X149.898 Y33.166 E51.47626
G1 X150.201 Y33.264 E51.49109
G1 X152.406 Y33.907 E51.59804
G1 X152.722 Y34.005 E51.61345
G1 X153.153 Y34.146 E51.63456
G1 X154.002 Y34.465 E51.6768
G1 X154.725 Y34.775 E51.71343
G1 X155.012 Y34.904 E51.72808
G1 X155.392 Y35.081 E51.7476
G1 X156.203 Y35.504 E51.79019
G1 X156.877 Y35.895 E51.82647
G1 X157.156 Y36.063 E51.84164
G1 X157.504 Y36.28 E51.86073
G1 X158.257 Y36.798 E51.90329
G1 X158.904 Y37.287 E51.94106
G1 X159.15 Y37.479 E51.95559
G1 X159.468 Y37.735 E51.9746
G1 X160.155 Y38.34 E52.01722
G1 X160.726 Y38.891 E52.05417
G1 X160.957 Y39.121 E52.06935
G1 X161.236 Y39.408 E52.08799
G1 X161.834 Y40.081 E52.12991
G1 X162.349 Y40.714 E52.16791
G1 X162.557 Y40.978 E52.18356
G1 X162.798 Y41.295 E52.2021
G1 X163.305 Y42.026 E52.24352
G1 X163.727 Y42.695 E52.28035
G1 X163.901 Y42.981 E52.29594
G1 X164.109 Y43.336 E52.3151
G1 X164.535 Y44.143 E52.35759
G1 X164.88 Y44.875 E52.39527
G1 X165.011 Y45.166 E52.41013
G1 X165.171 Y45.535 E52.42886
G1 X165.5 Y46.398 E52.47187
G1 X165.748 Y47.15 E52.50874
G1 X165.84 Y47.445 E52.52313
G1 X165.961 Y47.853 E52.54294
G1 X166.18 Y48.735 E52.58526
G1 X166.332 Y49.488 E52.62103
G1 X166.389 Y49.794 E52.63552
G1 X166.46 Y50.211 E52.65522
G1 X166.574 Y51.129 E52.6983
G1 X166.636 Y51.923 E52.73538
G1 X166.655 Y52.226 E52.74952
G1 X166.674 Y52.62 E52.76788
G1 X166.685 Y52.952 E52.78335
G1 X166.7 Y54.009 E52.83257
G1 X166.699 Y189.639 E59.14808
G1 X166.689 Y190.337 E59.18058
G1 X166.646 Y191.137 E59.21789
G1 X166.631 Y191.298 E59.22542
G1 X166.569 Y191.816 E59.24971
G1 X166.521 Y192.147 E59.26528
G1 X166.352 Y193.034 E59.30733
G1 X166.106 Y193.903 E59.34938
G1 X165.924 Y194.404 E59.3742
G1 X165.761 Y194.82 E59.39501
G1 X165.594 Y195.221 E59.41523
G1 X165.199 Y196.034 E59.45732
G1 X164.734 Y196.808 E59.49937
G1 X164.406 Y197.274 E59.5259
G1 X164.094 Y197.692 E59.55019
G1 X163.522 Y198.391 E59.59225
G1 X162.891 Y199.037 E59.6343
G1 X162.27 Y199.573 E59.67249
G1 X161.952 Y199.826 E59.69142
G1 X161.601 Y200.093 E59.71195
G1 X161.513 Y200.157 E59.71702
G1 X160.76 Y200.655 E59.75905
G1 X159.605 Y201.252 E59.8196
G1 X159.219 Y201.421 E59.83922
G1 X158.871 Y201.566 E59.85677
G1 X158.02 Y201.867 E59.8988
G1 X157.145 Y202.092 E59.94087
G1 X156.564 Y202.197 E59.96836
G1 X156.106 Y202.266 E59.98993
G1 X155.664 Y202.323 E60.01068
G1 X154.82 Y202.386 E60.05009
G1 X154.572 Y202.394 E60.06165
G1 X154.243 Y202.399 E60.07697
G1 X81.061 Y202.399 E63.48463
G1 X80.364 Y202.389 E63.51709
G1 X79.57 Y202.347 E63.55411
G1 X79.408 Y202.332 E63.56169
G1 X78.863 Y202.266 E63.58725
G1 X78.53 Y202.217 E63.60292
G1 X77.643 Y202.046 E63.64499
G1 X76.775 Y201.798 E63.68702
G1 X76.298 Y201.625 E63.71065
G1 X75.884 Y201.463 E63.73135
G1 X75.479 Y201.294 E63.75178
G1 X74.666 Y200.899 E63.79387
G1 X73.892 Y200.434 E63.83592
G1 X73.426 Y200.106 E63.86245
G1 X73.008 Y199.794 E63.88674
G1 X72.309 Y199.222 E63.9288
G1 X71.663 Y198.591 E63.97085
G1 X71.116 Y197.957 E64.00984
G1 X70.852 Y197.624 E64.02962
G1 X70.606 Y197.3 E64.04857
G1 X70.552 Y197.226 E64.05283
G1 X70.052 Y196.473 E64.09492
G1 X69.446 Y195.3 E64.1564
G1 X69.275 Y194.909 E64.17627
G1 X69.11 Y194.511 E64.19633
G1 X68.814 Y193.658 E64.23838
G1 X68.595 Y192.782 E64.28042
G1 X68.503 Y192.264 E64.30492
G1 X68.434 Y191.806 E64.32649
G1 X68.377 Y191.364 E64.34724
G1 X68.314 Y190.5 E64.38758
